<?xml version="1.0" encoding="UTF-8"?>
<map version="1.10" tiledversion="1.12.1" orientation="orthogonal" renderorder="left-down" width="101" height="101" tilewidth="16" tileheight="16" infinite="0" nextlayerid="9" nextobjectid="1">
 <tileset firstgid="1" source="assets/Tileset_Water.tsx"/>
 <tileset firstgid="313" source="assets/forest_demo_objects.tsx"/>
 <tileset firstgid="569" source="assets/forest_demo_terrain.tsx"/>
 <tileset firstgid="825" source="assets/desert_demo_terrain.tsx"/>
 <layer id="3" name="ground" width="101" height="101">
  <data encoding="csv">
827,829,828,829,828,828,827,828,827,827,829,829,829,828,827,827,829,827,827,828,827,827,828,829,827,828,828,828,827,829,828,827,829,827,827,828,829,828,828,827,829,829,827,829,828,829,828,828,829,827,828,829,827,829,828,827,829,828,829,828,827,828,829,829,828,828,827,828,828,829,828,827,827,827,828,828,828,829,827,828,829,828,828,828,829,828,828,828,827,827,827,827,829,827,828,827,828,828,828,828,828,
828,828,829,827,827,827,828,827,829,827,827,829,827,827,828,829,827,829,827,829,828,829,827,828,829,828,827,829,828,829,828,827,827,827,828,829,829,829,828,827,829,829,829,828,828,829,829,827,828,827,828,829,829,828,827,827,829,828,829,827,827,829,829,827,829,829,829,829,827,828,827,827,827,828,828,828,827,829,828,827,828,827,827,827,829,829,829,827,827,828,829,827,827,827,828,829,827,827,828,828,828,
829,829,829,828,827,828,828,827,827,828,829,827,827,828,828,827,828,828,828,829,829,828,829,829,827,828,827,829,829,827,827,827,827,828,827,829,829,829,829,829,829,828,828,829,829,829,828,828,829,829,828,829,827,829,827,827,829,828,827,828,827,827,827,829,828,828,829,828,828,829,827,828,827,829,828,829,827,827,829,828,828,828,827,829,829,827,828,828,828,827,827,829,827,828,827,829,829,829,827,828,829,
827,827,827,829,829,828,827,827,829,829,827,827,828,828,829,827,829,828,828,827,829,827,827,829,828,829,828,828,828,828,828,828,828,828,828,827,829,827,827,827,827,829,828,827,828,827,827,827,828,829,828,828,827,829,827,829,829,827,827,828,829,828,827,828,829,827,827,828,827,829,829,827,829,829,828,829,828,828,829,828,828,829,827,828,829,829,827,829,829,829,827,827,829,829,828,828,827,827,829,827,827,
829,828,827,829,827,828,828,828,827,828,827,827,827,828,829,827,829,827,829,828,829,829,829,829,829,827,827,827,828,827,828,828,828,829,827,829,828,828,828,829,827,827,828,828,828,828,829,829,829,828,829,829,827,827,827,828,829,827,829,828,829,829,827,828,827,828,828,828,829,827,828,829,829,828,827,829,828,828,827,829,829,827,829,827,828,827,828,827,829,829,828,828,828,828,829,828,828,829,829,829,829,
828,827,828,829,827,828,827,827,828,828,827,828,828,829,827,829,829,827,829,827,827,827,827,828,829,828,828,829,829,828,827,828,828,828,829,828,828,828,829,829,828,827,829,829,827,829,829,827,828,827,829,829,829,828,827,829,827,828,827,827,828,828,829,828,829,829,827,828,829,828,829,828,828,829,828,827,827,829,829,829,829,827,827,828,827,828,828,829,829,827,829,829,829,827,829,827,827,829,829,827,827,
827,828,827,828,829,827,827,827,828,828,827,828,827,828,827,827,827,827,828,829,828,828,828,829,829,829,829,827,827,829,827,827,828,827,829,829,828,827,828,827,828,829,828,829,829,829,827,828,829,829,828,828,827,827,828,827,829,827,827,827,828,828,828,828,829,829,827,827,829,828,829,828,827,829,827,828,827,828,829,829,828,829,827,828,827,828,829,828,828,828,828,829,828,827,829,829,827,827,827,829,829,
829,828,829,828,829,828,827,828,827,829,828,828,829,828,828,828,829,828,828,829,828,829,827,829,828,829,828,829,829,827,829,828,829,827,829,829,829,828,828,827,829,827,827,828,828,829,827,827,829,828,828,828,828,829,827,828,828,829,827,827,827,829,827,829,827,828,827,828,828,828,827,827,827,828,829,828,829,829,827,829,828,829,829,828,827,829,829,828,829,827,828,828,828,828,829,829,828,827,827,829,827,
827,829,829,829,828,827,827,829,827,829,829,828,827,828,828,828,828,827,828,827,828,827,827,827,828,827,829,828,827,829,828,828,829,828,828,827,829,829,828,828,827,827,828,827,828,829,828,828,828,829,829,827,827,829,828,829,827,829,829,828,827,827,828,827,829,827,829,829,827,827,827,828,829,829,827,827,828,829,829,829,827,829,829,829,828,828,829,827,828,827,827,828,829,829,827,828,828,828,829,829,828,
827,827,829,827,828,827,827,828,828,829,829,827,829,829,829,829,828,829,827,828,827,827,827,827,828,827,829,828,829,829,828,828,827,827,827,829,829,828,829,827,828,829,829,827,827,827,828,829,827,828,827,827,828,828,829,828,829,827,828,828,827,828,829,828,828,828,828,828,829,829,828,827,827,829,828,829,828,829,828,827,828,828,829,827,828,827,829,827,829,829,828,829,828,827,828,829,827,828,828,828,827,
828,828,828,829,828,827,828,827,829,827,827,829,829,829,827,829,827,827,829,827,828,828,828,828,829,829,829,827,828,829,829,827,829,828,827,828,827,827,827,827,828,829,829,829,827,828,827,827,827,828,829,828,829,827,829,828,827,827,827,829,828,827,827,828,827,827,829,828,829,829,828,829,827,828,827,829,828,829,828,827,827,829,828,827,827,827,828,829,829,828,828,829,828,828,828,829,827,827,827,828,827,
828,829,827,829,829,829,828,829,827,829,829,829,828,829,827,829,829,827,827,828,827,829,829,828,827,827,829,829,829,829,827,828,827,828,829,828,829,828,828,829,829,828,829,828,828,827,827,829,829,829,827,828,827,827,829,827,829,827,829,829,827,829,828,827,828,828,827,827,828,829,828,829,828,829,829,829,828,828,828,827,828,827,828,827,828,827,828,827,829,827,827,828,828,827,829,829,829,829,828,829,827,
827,827,829,827,829,829,829,829,829,827,829,828,828,829,827,828,828,828,828,829,827,827,828,827,827,828,829,828,828,828,829,827,829,829,827,828,829,829,829,828,829,829,827,827,829,829,828,827,827,828,828,827,828,829,827,827,829,829,829,827,829,828,827,827,828,829,829,829,829,828,829,829,829,827,829,828,829,829,827,827,827,829,828,827,828,829,828,827,829,829,829,827,828,827,829,827,827,828,827,827,828,
829,828,829,828,829,829,829,827,827,828,829,828,828,827,828,828,829,828,828,827,827,827,829,827,829,827,827,829,828,827,827,828,829,829,828,829,829,828,827,827,828,828,828,828,827,829,828,829,828,827,827,829,827,828,827,828,827,829,829,828,829,827,828,829,829,829,827,829,828,827,828,828,828,827,827,828,827,827,828,828,828,829,827,828,827,827,829,828,828,828,827,829,827,828,827,827,829,827,828,828,827,
828,827,829,828,827,827,827,827,829,828,827,828,827,829,827,828,827,828,829,828,829,829,827,829,829,829,828,827,827,829,828,828,827,828,828,829,828,827,829,829,827,828,828,827,829,829,827,828,827,828,827,828,827,829,829,828,829,827,829,829,828,827,827,829,829,829,828,827,829,827,829,829,827,828,829,827,828,828,829,827,827,827,829,829,827,829,829,827,828,827,828,829,829,828,827,829,829,829,827,828,827,
828,827,827,828,828,828,827,827,827,829,829,829,829,829,829,829,828,827,828,828,827,827,828,828,829,827,827,827,827,827,827,828,827,827,827,829,829,828,828,827,829,828,828,827,827,827,828,829,828,827,829,827,827,828,829,828,828,829,829,827,829,827,828,827,828,828,828,827,828,827,827,828,827,828,827,827,829,827,828,827,828,829,828,829,827,829,827,828,829,829,827,829,828,828,829,829,829,829,827,828,827,
827,829,829,827,827,827,829,829,827,828,828,827,829,828,828,827,828,828,829,827,829,827,827,828,827,829,828,828,827,827,829,827,827,828,827,827,827,828,829,829,828,827,827,827,827,827,828,827,829,828,829,827,829,828,827,828,827,829,828,828,827,827,827,827,827,828,829,827,827,827,827,827,827,828,828,828,829,829,828,827,829,827,829,829,829,828,828,829,827,829,828,827,828,828,829,828,829,828,827,827,828,
828,827,829,829,828,828,827,827,827,828,828,828,828,829,829,829,829,828,827,827,827,827,829,828,828,827,828,827,828,828,829,828,827,827,827,828,829,827,827,827,827,828,827,827,828,827,829,828,829,827,829,827,828,827,828,827,829,829,827,829,828,827,828,828,827,828,827,828,828,829,829,827,827,827,829,828,827,829,829,827,827,828,828,827,827,827,829,827,829,828,828,827,828,828,828,827,828,828,828,828,827,
828,829,829,829,828,829,827,829,828,829,827,828,828,828,828,827,829,829,828,829,829,827,828,827,829,828,827,828,828,827,828,827,827,827,829,829,829,827,828,827,828,828,828,829,828,828,828,827,827,828,829,828,827,829,829,827,827,829,829,829,827,829,829,829,827,829,827,827,828,828,828,828,828,828,829,827,827,827,827,829,827,829,828,828,828,828,828,829,829,827,827,828,827,827,829,829,827,828,827,828,827,
829,828,828,827,828,827,827,829,827,829,829,828,827,827,828,827,829,827,828,827,829,829,828,829,827,827,829,828,829,829,827,827,827,828,828,828,828,828,828,829,828,828,827,827,828,827,829,828,828,829,827,829,828,827,827,829,827,829,828,829,828,828,829,827,828,827,829,828,827,827,828,829,829,828,827,828,827,827,829,828,829,829,828,829,828,829,829,829,827,828,828,828,827,828,829,827,829,829,827,827,828,
827,829,827,827,827,828,829,827,828,828,828,829,829,827,828,829,827,827,827,828,828,827,827,829,828,829,827,828,828,828,828,827,827,829,828,828,827,829,827,829,829,828,829,827,828,828,828,827,829,827,828,828,827,828,827,827,829,828,827,828,827,829,829,828,827,829,828,828,829,829,828,829,828,827,828,827,829,829,828,829,827,828,828,829,827,828,829,829,829,828,827,829,827,829,827,828,827,828,828,827,827,
828,828,829,827,829,827,829,829,829,829,827,827,827,827,827,827,827,828,828,827,829,828,828,829,829,829,829,829,827,827,829,829,827,829,829,828,829,827,829,827,829,827,827,827,829,828,827,827,827,827,827,829,827,828,829,829,828,829,829,829,828,828,829,829,828,829,829,828,829,828,827,827,829,829,827,829,827,828,829,828,827,829,829,829,828,827,828,827,827,828,828,827,827,827,827,827,827,827,828,829,827,
828,829,828,828,828,827,828,829,827,828,828,827,828,828,829,827,829,828,829,827,827,828,829,828,829,828,827,829,829,827,829,828,828,828,828,829,829,829,827,827,829,829,828,829,828,828,829,827,829,829,829,828,829,827,829,827,828,829,828,827,829,827,828,827,827,829,828,828,829,828,829,827,827,828,829,829,829,828,827,829,827,828,827,827,827,829,828,827,829,828,827,828,829,827,829,829,828,829,829,829,829,
829,827,829,829,827,828,829,828,829,829,829,829,828,827,828,827,829,828,828,827,828,827,827,829,827,827,829,828,828,828,827,827,827,827,827,828,828,828,827,828,827,827,828,827,829,829,829,828,827,827,829,827,828,829,829,827,828,827,829,827,828,828,829,829,827,828,827,829,828,827,829,828,827,827,829,829,829,828,829,827,829,827,829,829,829,827,827,827,828,829,828,828,828,827,827,829,829,828,829,827,827,
829,828,827,827,827,827,827,828,827,829,829,829,828,828,828,829,828,827,829,829,827,828,827,828,828,827,829,829,827,827,827,828,828,827,827,829,829,827,829,828,829,829,827,827,827,829,828,827,827,827,829,827,829,828,827,829,827,827,828,829,827,828,829,829,828,829,827,828,829,827,829,828,827,829,827,827,829,829,828,829,827,829,828,827,827,828,827,829,829,827,829,827,829,827,829,829,829,827,828,827,827,
827,827,829,828,829,828,827,828,829,829,829,829,827,829,827,828,829,827,828,828,827,827,827,828,827,828,827,827,827,827,828,827,827,827,828,827,828,827,829,827,827,827,829,828,828,828,827,829,829,827,828,829,827,827,828,829,827,828,829,829,828,829,828,828,829,827,827,829,828,828,828,827,827,827,827,828,827,827,828,829,827,827,827,827,829,828,828,827,828,829,828,827,828,828,827,827,827,827,828,827,829,
829,829,828,827,829,827,827,827,827,829,827,827,828,827,827,828,827,829,828,828,829,827,827,827,828,829,829,829,827,827,827,827,829,828,828,827,828,827,829,827,828,828,828,828,828,829,829,828,828,829,828,827,829,829,827,829,828,827,828,829,828,827,827,829,828,828,827,827,829,828,829,827,828,828,829,828,827,827,827,829,827,828,828,829,829,829,828,829,828,827,827,827,829,828,828,827,828,827,828,829,827,
828,827,828,829,828,829,827,828,827,828,829,829,829,828,828,829,827,829,829,827,828,828,828,829,829,827,827,827,828,829,827,829,828,829,828,827,828,829,829,827,827,827,828,828,829,829,828,828,828,827,828,829,827,828,827,827,828,828,827,827,827,827,828,828,828,828,828,828,827,829,827,829,827,829,828,829,829,827,828,827,828,829,829,829,829,828,829,829,827,828,829,829,827,827,829,828,828,827,827,828,827,
828,828,828,829,829,827,829,829,828,827,829,829,828,829,829,828,827,827,828,828,829,827,828,829,829,827,827,828,828,828,828,827,827,828,828,829,829,827,829,828,829,829,829,827,829,828,829,829,828,827,828,828,828,828,829,829,827,828,829,829,827,827,828,828,829,827,828,828,829,827,829,827,829,827,829,827,828,829,827,827,828,828,827,828,827,827,828,827,827,829,829,829,828,829,829,827,828,827,827,827,827,
827,829,828,827,828,827,827,827,829,828,829,828,829,829,827,828,828,828,827,827,827,829,828,829,827,829,829,827,829,828,828,828,829,827,829,829,827,827,829,828,827,828,829,828,828,829,828,827,827,829,829,827,828,827,828,827,829,829,828,827,829,828,828,828,827,829,827,827,827,828,829,828,829,827,827,827,829,828,827,827,829,829,827,827,827,828,827,829,827,827,827,829,827,827,827,827,829,828,829,829,828,
829,828,827,828,829,827,827,829,829,828,829,827,829,829,829,829,829,827,827,829,827,828,829,828,827,828,828,827,827,828,829,829,827,829,828,828,827,827,829,829,829,829,827,828,827,829,828,828,828,827,828,829,829,828,828,828,829,829,829,829,828,827,828,827,828,828,828,828,827,829,828,828,827,829,829,828,827,827,827,828,827,829,827,827,829,828,829,827,829,829,829,828,828,828,829,828,829,829,828,829,829,
828,828,827,829,828,829,827,828,829,827,828,828,829,829,827,828,828,828,828,829,829,829,829,827,828,827,829,827,828,828,828,827,829,829,829,827,828,829,828,828,829,827,829,827,828,827,827,827,828,828,827,828,827,828,828,828,827,827,829,829,828,827,827,827,828,828,829,828,829,828,827,829,827,828,828,828,827,829,827,829,829,828,828,828,827,829,829,829,829,828,827,828,829,827,827,827,827,829,829,828,827,
828,829,829,829,828,829,828,829,827,828,828,829,828,828,828,827,829,829,828,829,829,827,828,827,829,827,828,829,827,827,828,827,829,827,829,829,827,827,827,829,827,827,827,827,829,827,827,828,827,828,827,828,828,828,827,829,827,828,827,829,828,829,828,828,828,829,829,828,829,829,828,827,828,829,828,827,829,829,828,828,827,828,828,827,829,827,827,827,828,829,828,827,829,828,829,829,828,827,828,829,827,
828,827,829,829,829,829,828,829,828,828,828,829,828,827,828,829,828,827,827,829,829,827,829,827,827,827,828,828,828,829,827,827,829,828,828,827,828,827,829,827,827,827,827,827,829,827,829,828,829,827,829,829,827,829,828,828,827,828,828,829,829,829,828,829,829,828,827,827,827,827,827,827,827,827,829,829,827,828,828,827,828,827,829,829,828,828,828,828,828,827,828,829,829,829,827,828,827,827,827,827,829,
828,829,829,829,829,829,829,829,829,829,829,828,829,829,828,827,828,828,829,829,828,828,828,827,829,828,828,829,827,829,829,827,829,827,827,829,827,828,828,827,828,829,828,829,827,829,827,828,829,829,829,827,829,827,829,829,829,828,829,828,828,827,828,829,829,827,827,829,829,829,828,829,827,828,827,828,829,829,829,827,829,827,829,828,827,829,827,828,829,828,829,829,828,827,829,827,827,829,829,828,828,
828,827,829,827,829,829,828,828,829,828,827,828,828,829,828,828,829,827,828,829,827,827,829,828,829,829,828,828,829,829,828,829,827,829,829,829,829,828,827,829,829,827,829,828,827,828,829,829,827,827,828,829,829,828,829,829,828,828,827,828,827,827,828,829,827,829,829,829,829,829,827,827,828,829,829,827,827,827,827,827,827,827,829,827,828,829,829,827,827,829,827,827,828,829,829,827,828,827,827,829,829,
828,827,829,828,829,827,829,828,827,829,827,827,829,827,829,827,829,829,828,828,827,828,829,827,827,829,827,828,829,827,827,829,829,827,829,828,828,827,827,828,829,828,829,829,829,829,829,827,829,827,828,829,827,827,828,829,828,829,828,829,827,829,829,827,828,828,828,829,829,828,828,827,828,829,829,828,827,828,828,828,828,828,829,829,829,828,827,829,828,829,829,828,828,828,827,827,829,828,828,827,828,
827,829,829,828,827,828,828,827,829,828,827,829,829,828,827,829,827,827,827,828,827,828,829,828,829,829,829,827,827,828,827,827,829,827,827,829,827,829,828,828,827,828,827,828,828,827,829,829,828,827,829,828,828,828,827,828,828,828,828,827,827,827,828,827,828,828,827,827,828,829,828,829,828,828,828,828,827,828,828,828,829,827,829,829,828,827,828,827,827,829,827,828,827,828,829,828,828,828,829,828,828,
827,828,829,827,829,828,829,828,829,829,829,828,827,829,829,828,829,829,828,827,828,829,829,829,829,828,828,829,829,827,829,828,827,828,828,829,827,829,827,828,829,828,829,829,827,827,827,827,829,828,829,828,829,827,828,828,827,828,829,829,827,828,828,827,829,827,827,829,828,827,827,829,828,828,829,827,828,827,828,828,828,828,828,829,827,829,828,828,829,828,829,827,828,828,828,828,828,827,828,827,827,
829,828,829,827,828,829,829,828,828,829,827,827,827,828,828,827,828,828,828,829,829,829,827,828,829,828,827,828,827,829,829,829,828,827,828,828,827,827,829,828,828,828,827,827,829,829,829,827,827,827,829,829,829,828,828,829,828,829,829,829,827,829,829,828,829,828,827,828,828,827,829,828,829,829,827,827,828,828,828,829,828,827,828,828,829,827,829,829,827,829,828,828,827,829,827,829,828,828,829,827,828,
829,829,827,829,827,828,827,827,829,827,829,828,829,827,828,829,828,829,827,828,828,829,827,827,829,827,827,827,829,828,827,827,829,828,828,827,828,828,827,828,828,827,828,827,829,829,828,827,829,829,828,829,829,828,828,829,827,829,827,828,829,828,829,827,829,829,827,829,827,827,827,827,829,827,828,828,827,827,829,828,827,827,827,827,827,827,829,828,829,828,829,829,828,828,827,827,828,827,828,827,828,
827,827,829,828,827,828,828,828,827,829,829,828,829,829,829,827,828,827,827,829,828,828,827,827,828,828,827,828,827,827,827,828,827,829,828,828,829,828,828,829,827,827,827,827,829,827,829,829,827,827,829,828,827,827,827,829,828,827,827,827,827,829,827,829,829,828,828,828,828,829,828,829,828,828,827,828,828,827,828,828,829,827,828,829,829,829,828,828,829,827,828,829,829,829,828,827,827,828,827,829,828,
828,828,827,827,829,827,828,828,828,828,829,828,829,827,828,827,828,828,829,828,829,828,829,828,827,829,827,828,827,829,827,828,828,827,827,829,828,828,827,829,829,829,829,828,827,827,829,827,827,829,828,828,829,828,828,828,829,828,827,829,829,827,829,829,829,829,829,829,828,829,828,829,827,827,829,828,827,827,827,828,829,829,827,829,827,829,828,828,827,829,828,827,829,828,827,829,827,827,827,827,829,
829,829,827,828,827,828,829,828,828,829,829,828,829,827,827,829,828,829,829,828,827,829,828,829,827,828,828,828,828,829,827,827,828,827,829,829,829,829,828,829,829,829,829,828,829,828,827,828,829,829,829,827,829,829,829,829,829,829,828,829,827,829,829,829,827,829,828,828,829,828,829,828,828,828,827,829,828,829,829,827,827,827,827,827,827,829,828,829,828,827,829,829,827,828,827,828,829,828,829,829,827,
829,829,827,828,829,828,828,828,829,828,827,827,828,829,829,829,828,828,828,828,828,829,827,829,827,827,827,829,828,827,829,829,827,828,827,827,829,829,827,828,829,829,828,827,827,828,829,829,828,827,827,829,827,829,828,828,827,828,829,827,828,827,827,827,828,829,827,829,827,829,827,829,827,828,827,827,829,827,827,829,829,827,827,829,827,827,829,827,829,827,828,827,828,829,829,828,829,829,828,827,827,
829,827,827,828,828,827,827,829,829,828,829,828,827,827,827,827,827,828,829,828,829,827,829,827,828,828,829,829,827,828,827,828,829,829,829,829,829,828,827,828,829,828,828,829,829,829,827,829,828,827,828,828,827,827,828,827,827,828,828,827,829,829,828,828,828,829,828,828,829,827,828,829,829,827,827,828,827,829,829,827,828,829,827,829,827,828,828,829,828,828,827,827,827,828,828,827,827,827,828,829,827,
827,828,828,827,827,829,828,827,827,828,827,827,829,827,829,827,828,827,827,828,828,829,827,829,828,827,829,829,827,828,827,827,829,829,829,828,829,829,829,829,828,827,827,829,827,828,829,828,827,828,829,829,829,828,827,829,828,829,827,829,828,827,829,829,827,828,829,827,828,827,829,829,829,829,829,827,827,829,829,827,827,827,828,827,828,827,829,829,829,829,829,827,829,829,827,827,827,827,828,829,827,
828,828,827,828,827,829,828,827,828,828,827,827,829,827,828,829,828,827,828,828,828,829,828,828,829,828,829,827,829,827,827,827,828,827,829,828,828,828,829,828,827,827,829,827,829,827,827,829,827,827,828,827,829,828,827,827,828,828,828,829,827,829,829,827,828,828,828,829,828,828,828,828,828,827,829,827,829,829,829,828,827,829,829,829,828,829,827,829,827,829,828,828,829,829,829,827,828,829,829,828,829,
828,827,827,828,829,827,828,829,827,827,827,829,829,827,828,828,827,827,828,827,829,827,829,829,827,828,828,827,827,827,827,829,828,829,828,827,827,829,827,828,829,829,829,827,827,828,829,828,827,829,829,829,828,829,829,829,827,828,827,827,828,829,829,829,827,829,828,829,828,828,827,829,827,827,829,828,829,828,829,827,828,827,829,827,828,827,827,828,829,829,827,828,827,827,828,828,827,829,829,828,828,
828,829,829,829,829,828,827,828,827,829,829,827,828,829,828,827,827,828,827,827,828,827,828,827,828,828,827,827,827,828,829,827,829,827,827,827,827,827,827,827,828,828,828,829,829,829,828,829,827,829,829,829,827,829,829,827,827,829,828,829,827,828,827,827,828,829,828,827,828,828,827,827,827,827,829,829,828,828,829,828,829,827,827,827,828,828,827,829,829,828,827,827,829,827,829,827,829,828,827,827,829,
827,829,828,827,827,828,828,828,827,829,829,829,827,829,829,827,829,828,828,828,828,827,828,829,828,828,828,827,829,827,829,829,827,828,827,829,829,829,827,827,828,829,829,829,827,828,829,828,827,827,829,828,827,827,827,828,828,827,828,829,827,829,829,827,827,829,828,827,827,829,827,827,827,827,827,828,829,827,829,828,829,827,829,828,829,828,828,828,827,827,827,829,829,828,827,829,829,827,828,827,829,
828,829,828,828,827,827,827,827,828,827,827,829,829,828,828,828,829,827,827,829,827,828,828,828,827,829,829,827,827,829,829,829,829,828,829,829,827,828,829,829,829,829,829,828,828,827,829,828,828,827,829,827,828,828,829,827,827,828,828,829,828,829,828,827,827,829,827,828,827,828,827,829,829,828,828,828,828,827,829,827,828,829,829,828,827,829,828,829,828,827,827,827,827,828,828,828,827,828,827,827,828,
828,828,829,829,828,828,828,828,828,828,827,828,829,828,829,828,829,829,829,829,829,829,827,829,827,827,829,829,829,829,828,828,828,829,827,827,827,827,829,827,829,828,827,829,828,829,829,827,827,827,828,828,828,827,827,829,829,827,827,828,828,829,828,829,829,827,827,829,827,827,829,829,827,828,828,828,829,828,828,827,829,827,827,828,827,828,827,827,827,827,829,828,827,828,829,827,827,829,827,829,829,
827,829,828,828,828,827,828,829,828,828,829,827,827,827,827,829,827,829,828,829,827,828,828,828,829,829,829,827,829,828,829,829,828,828,827,828,828,827,827,827,828,828,828,827,828,828,829,829,828,828,829,828,827,828,829,828,827,827,828,829,829,829,829,829,827,828,828,827,828,829,829,829,829,828,828,827,827,828,827,829,827,829,829,829,828,829,829,828,827,827,828,829,828,829,828,828,829,827,829,827,828,
829,827,829,829,827,827,828,827,827,829,827,828,829,829,827,828,827,827,828,829,828,829,827,827,827,828,827,827,828,828,829,828,829,829,828,828,828,829,827,829,827,829,827,829,829,827,829,828,827,829,827,829,829,827,828,829,829,829,827,829,828,828,828,829,829,827,828,828,829,829,829,829,827,828,828,829,829,828,827,829,829,829,828,828,827,829,829,829,829,829,828,828,828,829,828,828,829,829,828,829,829,
827,829,828,829,828,829,827,829,827,828,827,828,829,827,827,827,829,828,829,827,827,828,829,829,828,827,828,828,827,827,827,828,827,827,829,828,827,827,827,829,829,827,828,827,828,828,828,828,829,827,829,828,828,829,827,829,828,827,829,828,829,828,828,827,829,827,827,829,827,829,829,828,828,828,828,829,829,827,828,828,829,829,828,829,829,827,829,827,827,827,827,827,828,828,829,827,828,829,829,828,829,
827,829,827,828,829,828,828,827,828,829,829,827,827,828,827,827,829,827,828,829,829,829,828,828,829,828,828,828,828,827,828,827,828,827,829,828,829,828,829,829,828,829,828,828,828,827,827,827,829,827,827,829,827,827,828,828,829,829,828,828,827,828,829,829,829,829,828,829,827,829,829,827,828,828,827,827,829,829,827,827,828,828,827,828,827,827,828,829,829,827,829,828,829,827,828,829,827,828,827,827,829,
829,827,828,827,828,827,827,828,829,829,828,827,827,827,828,829,828,829,827,827,828,829,829,827,828,829,828,828,828,827,829,828,828,829,827,828,829,827,829,829,827,828,829,827,827,829,827,829,829,827,827,827,827,829,829,827,829,827,828,828,827,828,827,828,828,827,828,827,829,827,828,828,829,827,827,828,828,827,828,829,829,827,827,827,828,828,828,827,829,827,828,829,827,828,828,827,828,827,827,827,829,
828,829,827,827,828,827,827,827,828,827,829,828,828,828,828,827,828,828,827,827,828,828,827,827,828,827,829,828,829,828,829,827,828,829,829,829,827,827,829,829,828,827,827,828,829,829,828,829,828,829,828,829,829,828,828,828,829,828,827,829,829,828,827,828,829,829,829,828,829,828,827,827,829,829,828,828,827,828,828,828,829,828,827,827,828,829,827,828,829,828,829,828,827,829,828,827,828,827,829,827,827,
827,828,829,827,829,828,828,829,829,828,827,827,827,828,829,829,829,828,827,829,828,829,828,829,829,829,828,829,829,827,827,828,828,829,829,829,829,828,829,829,827,829,827,827,829,827,829,829,827,827,829,828,829,828,828,829,827,828,829,827,827,827,829,828,827,828,829,829,829,829,827,829,829,829,829,827,828,828,828,827,828,829,829,829,829,827,827,829,829,828,829,828,827,828,827,829,829,827,827,827,829,
827,827,829,829,827,828,827,829,829,829,829,829,828,829,828,829,829,829,828,829,829,828,828,827,827,828,828,828,827,827,828,827,828,828,827,829,829,827,828,827,827,828,829,828,827,828,827,828,829,827,828,829,828,828,829,829,829,827,827,828,828,829,828,829,829,829,827,827,829,829,827,829,829,829,829,827,828,829,829,828,829,829,829,827,828,827,828,827,827,827,827,829,829,828,829,829,828,828,827,827,829,
827,829,827,828,827,829,827,828,829,829,828,827,828,829,828,829,828,827,827,828,828,828,827,829,828,828,827,828,827,828,827,828,829,829,827,827,828,828,827,828,828,829,828,828,829,828,828,829,827,827,828,827,829,828,827,828,828,828,827,829,828,829,827,828,827,827,828,827,827,828,828,827,829,827,828,827,828,827,827,828,827,827,827,829,828,828,828,829,829,828,828,827,828,828,827,827,827,829,828,829,829,
827,829,828,829,829,829,827,828,828,827,828,829,828,829,827,829,828,828,829,827,828,828,829,829,829,828,829,829,827,829,828,829,828,828,827,827,829,829,827,829,828,828,828,829,827,829,828,828,829,829,829,827,828,828,829,827,829,828,829,827,827,827,829,827,829,829,828,829,828,827,829,828,827,827,829,827,828,827,829,827,828,828,827,828,827,828,829,827,829,827,829,828,827,827,828,827,827,827,827,829,828,
829,828,828,827,829,828,829,828,827,828,827,828,827,827,829,827,829,828,827,829,828,828,828,829,829,828,829,828,827,829,828,828,827,829,829,829,829,828,827,829,828,827,827,829,827,829,828,829,829,828,827,829,828,827,828,828,827,829,827,829,828,828,829,827,828,828,828,828,828,827,829,828,827,828,829,827,829,827,829,827,827,828,827,828,829,829,828,827,828,827,828,827,829,829,827,827,827,829,828,829,829,
828,829,827,827,829,829,827,828,828,827,829,827,827,828,828,827,829,829,827,828,828,829,828,827,828,828,829,828,829,829,827,829,827,828,827,828,829,827,827,828,827,828,828,829,828,827,828,829,828,827,827,828,828,828,827,828,829,827,829,828,829,828,827,827,829,827,827,828,827,829,829,828,828,829,828,827,827,829,827,828,829,827,829,828,829,829,827,827,827,829,829,827,828,828,828,829,829,827,829,828,828,
827,829,827,828,827,828,827,829,827,829,828,827,829,827,829,828,829,829,828,828,827,829,829,829,828,828,829,829,827,828,828,827,827,828,827,829,828,829,829,828,828,828,827,827,829,829,827,829,828,827,827,828,829,827,829,828,829,829,828,829,827,827,828,827,828,827,827,828,829,829,829,828,829,828,829,828,828,829,828,829,827,827,827,828,827,827,829,829,827,829,828,827,827,828,829,828,827,829,828,828,827,
829,829,827,827,828,828,829,828,827,829,829,828,829,828,829,827,827,827,829,828,827,828,829,827,827,829,829,828,828,827,827,827,829,827,827,828,827,828,828,827,827,828,828,827,828,829,829,829,827,829,828,828,827,827,828,829,829,828,829,828,829,828,828,828,827,829,828,829,827,829,829,828,828,827,829,828,827,828,827,827,827,827,828,828,828,828,828,829,827,829,828,827,827,828,828,828,827,828,828,829,829,
829,829,828,828,829,829,827,828,827,829,828,828,829,828,827,829,827,829,827,828,828,828,828,827,827,827,827,829,828,829,827,827,829,828,829,829,829,827,828,827,827,829,828,828,829,827,829,829,828,829,827,827,828,827,827,827,829,829,828,829,828,829,827,827,827,828,829,827,829,827,827,828,827,827,829,828,827,828,828,829,828,828,827,828,829,828,828,828,828,827,828,827,827,827,829,827,828,827,827,828,828,
828,828,827,829,829,828,827,827,828,828,827,827,829,827,827,828,827,829,828,828,829,827,828,829,828,828,827,828,828,828,827,829,827,828,829,828,829,828,828,827,827,827,828,829,829,828,827,827,827,828,828,828,827,829,829,828,829,827,827,827,829,828,827,829,827,828,829,827,827,828,828,828,829,829,827,829,828,828,829,827,828,829,828,828,827,828,827,827,827,829,828,829,829,829,827,829,827,829,828,827,829,
828,829,827,828,827,829,827,829,827,828,829,829,828,829,827,828,828,829,828,827,829,829,827,829,827,827,828,827,828,828,828,827,828,827,828,828,828,828,828,828,828,829,827,827,827,828,829,827,829,827,827,828,828,828,829,828,827,829,828,828,829,827,829,828,827,829,828,829,827,828,827,827,828,828,829,829,829,828,828,828,828,827,829,828,827,828,827,828,828,829,828,829,828,828,828,829,827,829,827,827,827,
827,829,829,829,827,829,829,829,829,829,827,828,827,829,829,827,829,829,827,828,829,827,829,827,828,827,827,828,829,827,827,828,829,829,827,827,829,828,829,829,827,828,827,828,829,827,828,827,827,827,827,828,829,829,827,829,827,829,828,827,827,829,828,827,828,828,829,827,828,829,827,829,829,828,829,827,828,827,829,828,827,829,827,827,827,828,827,827,827,829,828,827,828,828,828,829,827,827,827,829,829,
829,828,828,827,828,828,827,829,828,829,827,827,828,828,828,827,828,827,827,828,827,829,828,829,828,828,828,827,828,827,828,827,829,828,827,828,829,828,829,827,829,829,827,828,827,828,828,827,827,827,828,829,827,827,829,827,829,829,827,827,829,827,828,827,827,828,829,829,829,828,827,827,829,828,829,827,829,827,828,827,827,829,828,828,827,829,827,829,829,829,828,827,828,827,829,827,828,829,829,828,829,
829,828,829,828,828,828,828,827,828,827,827,829,827,829,828,828,827,828,828,827,828,828,828,828,827,828,827,829,828,828,829,828,828,827,829,828,827,828,828,829,827,827,827,828,829,828,829,829,827,827,829,828,829,829,827,828,828,829,828,827,828,827,829,829,829,827,827,828,827,829,829,829,829,827,827,829,827,829,829,827,828,827,827,829,827,828,829,828,828,829,827,829,827,827,828,827,829,827,827,828,829,
828,829,827,829,828,827,828,828,828,828,828,829,827,829,828,828,827,827,827,829,827,829,829,827,827,828,829,829,829,827,828,828,828,828,827,828,828,829,829,829,827,829,828,829,827,829,827,829,827,827,829,828,828,827,829,827,829,829,827,829,827,828,829,827,827,828,827,827,828,827,828,829,827,828,827,829,828,829,827,828,828,829,829,828,829,829,827,829,828,829,828,827,827,829,828,828,827,827,827,829,829,
827,829,828,829,829,829,828,828,827,828,829,829,827,829,827,829,828,829,827,828,828,827,828,829,827,827,829,829,828,829,828,829,828,827,829,829,828,829,828,827,827,827,828,829,827,829,827,828,829,827,828,829,828,829,827,829,828,828,828,827,827,828,827,827,829,827,829,829,827,827,828,829,829,828,827,829,829,829,827,827,827,828,827,829,829,827,829,828,829,828,829,829,829,827,828,827,829,828,829,827,829,
827,828,828,828,827,827,829,828,827,829,828,827,829,827,829,829,827,829,828,828,828,828,828,829,827,828,829,827,827,828,827,828,829,828,827,827,828,827,828,828,829,829,829,827,827,829,828,829,828,828,828,829,827,829,827,828,828,829,829,828,827,829,828,827,829,829,829,828,828,828,828,827,827,827,829,827,827,829,828,827,828,828,828,829,829,829,829,828,829,828,829,828,829,827,829,829,827,828,827,828,829,
829,829,828,829,828,829,828,827,827,827,829,827,827,828,829,827,829,829,827,828,827,829,827,829,828,828,828,829,828,828,828,828,827,828,829,827,828,828,828,829,828,828,828,828,829,828,829,829,828,827,829,827,829,828,827,828,829,828,828,829,829,827,827,827,828,827,828,829,828,828,828,828,828,829,828,829,827,829,828,829,827,827,829,829,828,827,828,828,827,828,828,828,827,829,827,829,828,828,829,827,828,
829,828,828,827,828,828,828,827,827,827,829,827,828,828,829,828,829,829,828,828,828,827,829,828,827,827,829,829,828,827,828,827,827,828,827,827,828,828,829,827,827,829,828,829,827,827,827,829,828,827,827,829,829,827,828,829,829,829,827,828,827,828,828,829,827,829,827,827,827,829,827,829,828,827,827,829,827,829,828,827,828,828,829,827,829,829,827,829,828,828,828,828,829,828,829,827,829,827,828,828,827,
827,827,829,828,829,829,829,828,829,829,828,829,828,828,828,828,827,829,828,828,829,828,827,827,828,828,827,827,829,827,829,828,827,829,827,827,827,827,828,827,828,827,828,829,828,828,829,827,829,827,829,828,828,829,828,827,828,828,827,827,827,827,829,827,827,828,828,829,828,828,828,827,827,827,827,829,827,829,827,828,827,828,827,828,827,827,828,829,828,828,829,829,829,828,828,827,827,827,829,828,829,
828,827,828,827,829,828,827,828,829,828,828,828,827,827,828,829,829,827,829,827,828,829,828,827,829,828,827,829,827,827,828,827,827,827,827,829,829,827,829,829,829,828,828,829,828,829,829,827,828,828,829,827,829,827,829,828,827,828,827,828,827,827,829,828,827,829,829,829,827,829,829,829,827,829,829,827,827,829,828,828,829,829,828,828,827,828,827,829,828,829,829,827,828,828,829,827,828,828,828,827,828,
829,827,828,829,828,827,827,829,827,828,828,827,829,827,828,829,829,827,828,827,827,829,828,829,827,829,827,828,827,828,828,827,827,827,827,829,828,829,829,829,828,828,827,829,828,828,828,829,828,827,829,829,828,829,828,828,827,828,827,827,827,828,829,827,827,827,828,828,828,829,828,829,829,829,827,828,827,829,828,829,829,827,828,827,828,827,828,829,829,828,829,829,827,829,828,828,828,828,829,829,829,
829,827,829,829,829,828,828,829,828,829,828,827,828,828,828,828,829,828,828,827,827,827,828,827,828,828,829,828,828,829,829,828,829,827,828,828,828,827,827,828,829,829,829,828,827,829,827,828,829,828,827,829,829,829,829,828,829,827,828,827,829,829,829,827,827,828,828,827,827,828,828,828,827,828,828,828,828,829,829,828,827,827,828,829,828,827,829,828,827,828,827,827,827,827,827,829,827,827,827,827,829,
827,828,828,829,829,827,829,828,829,828,827,829,828,828,827,828,829,828,829,827,828,828,828,829,828,827,829,827,827,827,828,829,829,829,828,828,829,829,827,828,829,828,827,828,829,828,828,829,828,827,827,829,828,827,827,829,829,827,827,827,829,829,828,827,829,827,827,829,828,829,828,827,828,828,829,827,828,827,829,827,827,829,829,827,828,829,829,829,827,828,828,828,828,829,827,827,828,827,827,828,828,
828,828,827,827,828,827,827,829,828,828,829,829,828,829,828,829,829,828,829,827,829,828,829,828,829,829,827,827,827,828,829,829,829,829,827,829,828,827,827,828,829,828,827,828,828,829,829,827,828,827,828,828,829,827,829,829,827,828,828,827,827,827,828,829,827,827,829,828,829,828,827,827,827,828,829,828,828,828,829,828,828,829,828,828,829,827,827,829,829,828,828,827,827,828,829,828,827,827,827,829,828,
827,829,828,829,829,827,829,829,828,829,828,828,828,827,829,829,828,829,827,829,829,828,828,827,829,828,829,828,827,827,829,827,827,829,829,827,829,827,829,829,829,827,828,828,828,828,828,827,828,829,828,827,828,827,828,829,827,829,829,828,827,828,828,828,827,827,829,827,827,827,828,828,828,829,829,829,827,827,829,829,827,829,827,827,829,829,829,829,827,827,828,829,829,827,829,829,829,828,827,829,828,
828,827,828,827,828,827,827,828,829,828,827,828,827,828,829,828,828,827,828,829,827,828,828,827,828,827,829,828,828,828,827,829,828,827,829,829,828,829,829,828,827,827,829,829,828,827,827,829,829,829,828,828,829,829,829,829,829,829,829,827,828,829,827,827,828,827,827,829,827,829,829,829,827,828,827,827,827,829,827,829,827,829,829,827,827,829,827,828,827,829,827,828,829,828,827,829,829,828,828,828,829,
828,829,829,827,827,827,827,827,829,829,827,828,829,827,828,827,827,829,828,829,829,828,829,827,827,829,829,829,828,829,827,827,827,827,827,828,827,829,829,827,827,829,829,829,828,828,828,827,827,829,827,829,829,827,827,828,829,828,827,828,828,829,828,827,827,827,827,829,827,827,828,829,829,828,828,828,829,828,827,827,829,827,827,829,827,828,828,827,829,827,827,827,829,828,827,828,827,828,829,827,829,
827,827,828,829,828,828,828,827,827,828,827,827,828,829,828,827,828,828,828,827,829,828,829,827,827,827,829,827,828,829,827,827,828,828,828,828,829,827,827,829,828,828,827,828,828,829,828,827,827,829,829,828,829,827,827,827,829,827,827,829,827,827,827,827,829,828,829,829,828,828,827,827,828,828,828,829,828,827,827,828,828,827,827,829,827,828,827,827,829,828,827,828,827,829,829,827,828,827,828,828,827,
827,827,829,829,827,829,829,829,829,827,827,828,828,827,829,827,829,827,827,829,829,828,827,827,828,828,828,827,829,828,827,829,829,828,829,827,828,829,828,827,827,829,828,828,828,829,828,828,827,829,829,829,827,827,828,828,829,829,828,829,828,829,829,828,829,829,827,829,827,827,828,829,829,828,829,827,827,827,828,827,828,827,829,829,828,827,829,827,829,827,829,827,827,827,829,827,829,827,829,828,829,
829,827,829,828,829,828,828,829,827,829,829,829,829,827,827,828,828,828,828,828,829,828,827,827,827,827,829,828,829,828,829,829,827,827,828,827,829,829,827,828,829,829,828,827,829,827,827,827,827,828,827,827,827,827,828,828,828,828,828,827,829,827,829,827,827,828,828,829,829,828,828,828,828,829,828,828,829,829,827,828,829,827,829,827,828,828,828,828,827,827,828,829,828,829,829,829,827,828,827,827,827,
827,828,827,829,827,827,827,829,827,828,828,827,827,827,827,828,827,828,828,828,827,828,829,829,829,829,829,828,827,827,829,829,829,829,828,828,828,828,827,827,829,827,829,829,827,827,827,829,827,829,827,828,827,827,828,829,829,829,828,828,828,829,829,828,827,827,827,827,829,827,827,829,827,829,828,828,827,829,827,829,828,828,829,828,827,829,827,827,829,828,829,827,828,827,827,828,827,829,828,827,828,
828,827,828,828,829,829,827,828,827,828,828,829,829,829,829,827,829,829,829,827,828,829,827,829,829,828,829,829,827,829,828,828,827,829,829,827,827,827,829,827,829,829,829,827,828,827,829,829,829,827,829,829,829,829,827,829,829,829,828,827,829,828,829,828,827,827,827,827,829,827,829,829,828,829,828,827,827,828,827,828,827,828,828,829,827,827,827,829,827,828,828,829,827,827,828,828,828,829,829,827,829,
827,828,828,827,828,828,829,828,828,829,827,829,827,828,829,828,829,827,827,827,827,829,828,828,829,829,827,828,829,828,827,827,827,828,827,827,828,827,827,829,827,828,829,828,827,828,827,828,828,827,828,829,828,829,827,828,827,829,829,829,828,829,827,829,829,828,827,828,828,827,829,829,827,827,827,828,829,829,828,828,827,827,828,827,829,828,827,827,827,827,829,827,828,829,828,827,827,827,828,829,828,
827,829,829,829,827,829,827,829,827,828,828,827,829,829,829,829,829,829,828,827,828,828,828,828,828,829,829,827,827,827,828,827,829,827,827,828,828,828,828,829,828,827,829,828,829,827,828,827,829,827,827,828,829,827,829,827,827,828,827,828,827,829,828,828,828,827,828,829,829,828,827,829,829,828,829,828,829,827,827,827,828,827,828,829,829,827,827,827,828,829,829,829,828,827,828,829,827,828,829,827,829,
828,827,829,829,827,827,828,829,828,828,827,828,827,828,828,828,829,828,828,828,827,828,829,827,828,827,829,828,829,828,827,829,828,828,829,827,829,829,829,829,827,827,827,827,828,828,829,828,827,828,828,828,829,829,827,828,827,827,828,827,829,827,829,829,828,828,828,827,829,828,829,828,829,827,829,829,827,827,828,829,829,829,827,828,829,829,829,829,827,828,829,828,829,827,829,828,829,827,828,827,827,
829,827,827,827,827,829,829,829,829,827,827,828,829,828,828,829,827,828,827,828,827,828,827,827,829,829,829,828,828,829,829,828,828,828,829,829,828,827,827,828,829,827,829,827,829,828,827,829,828,829,828,829,827,829,829,828,828,828,827,827,828,827,829,827,827,827,829,827,828,827,829,827,827,829,829,828,828,829,827,829,829,829,828,829,829,827,827,828,827,828,828,828,828,829,827,829,827,828,827,829,827,
827,827,828,827,829,828,828,827,827,828,828,827,827,827,829,828,829,827,827,829,827,827,827,828,827,829,829,827,827,827,829,828,829,828,828,827,827,827,827,827,827,829,828,828,828,828,827,829,828,827,828,828,829,829,828,828,829,829,828,829,828,829,829,829,829,828,828,829,828,828,828,829,828,828,827,829,827,827,829,827,829,827,828,829,828,828,828,829,828,829,827,829,828,828,828,828,829,827,827,828,829,
827,829,828,827,827,827,829,829,827,829,828,827,827,829,829,828,827,827,828,829,829,828,827,827,829,829,828,827,827,829,829,829,828,828,827,828,828,828,827,827,829,828,829,828,827,827,827,829,827,827,828,828,828,827,829,829,829,828,828,829,828,828,829,829,828,828,828,827,828,829,827,829,827,829,827,829,828,827,827,828,829,829,828,828,827,828,828,828,829,828,829,827,828,829,828,827,828,828,829,828,828,
828,829,829,828,829,827,827,829,829,829,829,828,828,827,827,829,827,827,829,827,828,829,828,829,827,828,829,827,827,828,829,828,827,827,829,827,827,827,827,827,828,829,828,829,829,828,827,828,828,829,828,828,828,828,828,828,827,827,829,827,827,829,827,829,827,829,829,828,827,827,827,827,828,829,828,829,829,829,828,829,829,827,828,827,828,828,827,827,829,827,827,829,829,828,827,829,828,827,827,829,829,
827,829,828,829,828,829,828,827,829,829,829,828,827,828,827,827,827,827,827,829,827,828,828,828,828,829,828,829,829,827,827,829,828,828,827,828,829,827,829,827,827,829,828,828,828,827,827,827,827,827,828,827,828,827,828,827,829,828,827,828,828,829,829,827,827,829,829,827,829,827,827,827,828,827,828,828,829,829,828,827,829,827,827,829,829,827,827,828,827,827,829,829,829,827,829,829,829,829,827,829,827,
827,829,829,827,828,829,828,827,828,827,827,829,828,828,829,829,829,827,828,829,828,828,827,827,828,828,828,827,828,828,829,827,827,828,829,828,829,829,827,827,827,828,829,827,829,827,827,827,828,829,827,827,827,829,828,827,829,827,827,829,827,828,828,827,828,829,828,829,827,828,828,828,828,827,828,829,829,828,829,827,827,827,827,829,827,828,828,828,827,828,827,827,828,827,829,829,829,829,828,828,829
</data>
 </layer>
 <layer id="4" name="Rock" width="101" height="101">
  <data encoding="csv">
0,0,0,0,0,0,0,0,0,0,0,0,0,0,0,0,0,0,0,0,0,0,0,0,0,0,0,0,0,0,0,0,0,0,0,0,0,0,0,0,0,0,0,0,0,0,0,0,0,0,0,0,0,0,0,0,0,0,0,0,0,0,0,0,0,0,0,0,0,0,0,0,0,0,0,0,0,0,0,0,0,0,0,0,0,0,0,0,0,0,0,0,0,0,0,0,0,0,0,0,0,
0,0,0,0,0,0,0,0,0,0,0,0,0,0,0,0,0,0,0,0,0,0,0,0,0,0,0,0,0,0,0,0,0,0,0,0,0,0,0,0,0,0,0,0,0,0,0,0,0,0,0,0,0,0,0,0,0,0,0,0,0,0,0,0,0,0,0,0,0,0,0,0,0,0,0,0,0,0,0,0,0,0,0,0,0,0,0,0,0,0,0,0,0,0,0,0,0,0,0,0,0,
0,0,0,0,0,0,0,0,0,0,0,0,0,0,0,0,0,0,0,0,0,0,0,0,0,0,0,0,0,0,0,0,0,0,0,0,0,0,0,0,0,0,0,0,0,0,0,0,0,0,0,0,0,0,0,0,0,0,0,0,0,0,0,0,0,0,0,0,0,0,0,0,0,0,0,0,0,0,0,0,0,0,0,0,0,0,0,0,0,0,0,0,0,0,0,0,0,0,0,0,0,
0,0,0,0,0,0,0,0,0,0,0,0,0,0,0,0,0,0,0,0,0,0,0,0,0,0,0,0,0,0,0,0,0,0,0,0,0,0,0,0,0,0,0,0,0,0,0,0,0,0,0,0,0,0,0,0,0,0,0,0,0,0,0,0,0,0,0,0,0,0,0,0,0,0,0,0,0,0,0,0,0,0,0,0,0,0,0,0,0,0,0,0,0,0,0,0,0,0,0,0,0,
0,0,0,0,0,0,0,0,0,0,0,0,0,0,0,0,0,0,0,0,0,0,0,0,0,0,0,0,0,0,0,0,0,0,0,0,0,0,0,0,0,0,0,0,0,0,0,0,0,0,0,0,0,0,0,0,0,0,0,0,0,0,0,0,0,0,0,0,0,0,0,0,0,0,0,0,0,0,0,0,0,0,0,0,0,0,0,0,0,0,0,0,0,0,0,0,0,0,0,0,0,
0,0,0,0,0,0,0,0,0,0,0,0,0,0,0,0,0,0,0,0,0,0,0,0,0,0,0,0,0,0,0,0,0,0,0,0,0,0,0,0,0,0,0,0,0,0,0,0,0,0,0,0,0,0,0,0,0,0,0,0,0,0,0,0,0,0,0,0,0,0,0,0,0,0,0,0,0,0,0,0,0,0,0,0,0,0,0,0,0,0,0,0,0,0,0,0,0,0,0,0,0,
0,0,0,0,0,0,0,0,0,0,0,0,0,0,0,0,0,0,0,0,0,0,0,0,0,0,0,0,0,0,0,0,0,0,0,0,0,0,0,0,0,0,0,0,0,0,0,0,0,0,0,0,0,0,0,0,0,0,0,0,0,0,0,0,0,0,0,0,0,0,0,0,0,0,0,0,0,0,0,0,0,0,0,0,0,0,0,0,0,0,0,0,0,0,0,0,0,0,0,0,0,
0,0,0,0,0,0,0,0,0,0,0,0,0,0,0,0,0,0,0,0,0,0,0,0,0,0,0,0,0,0,0,0,0,0,0,0,0,0,0,0,0,0,0,0,0,0,0,0,0,0,0,0,0,0,0,0,0,0,0,0,0,0,0,0,0,0,0,0,0,0,0,0,0,0,0,0,0,0,0,0,0,0,0,0,0,0,0,0,0,0,0,0,0,0,0,0,0,0,0,0,0,
0,0,0,0,0,0,0,0,0,0,0,0,0,0,0,0,0,0,0,0,0,0,0,0,0,0,0,0,0,0,0,0,0,0,0,0,0,0,0,0,0,0,0,0,0,0,0,0,0,0,0,0,0,0,0,0,0,0,0,0,0,0,0,0,0,0,0,0,0,0,0,0,0,0,0,0,0,0,0,0,0,0,0,0,0,0,0,0,0,0,0,0,0,0,0,0,0,0,0,0,0,
0,0,0,0,0,0,0,0,0,0,0,0,0,0,0,0,0,0,0,0,0,0,0,0,0,0,0,0,0,0,0,0,0,0,0,0,0,0,0,0,0,0,0,0,0,0,0,0,0,0,0,0,0,0,0,0,0,0,0,0,0,0,0,0,0,0,0,0,0,0,0,0,0,0,0,0,0,0,0,0,0,0,0,0,0,0,0,0,0,0,0,0,0,0,0,0,0,0,0,0,0,
0,0,0,0,0,0,0,0,0,0,0,0,0,0,0,0,0,0,0,0,0,0,0,0,0,0,0,0,0,0,0,0,0,0,0,0,0,0,0,0,0,0,0,0,0,0,0,0,0,0,0,0,0,0,0,0,0,0,0,0,0,0,0,0,0,0,0,0,0,0,0,0,0,0,0,0,0,0,0,0,0,0,0,0,0,0,0,0,0,0,0,0,0,0,0,0,0,0,0,0,0,
0,0,0,0,0,0,0,0,0,0,0,0,0,0,0,0,0,0,0,0,0,0,0,0,0,0,0,0,0,0,0,0,0,0,0,0,0,0,0,0,0,0,0,0,0,0,0,0,0,0,0,0,0,0,0,0,0,0,0,0,0,0,0,0,0,0,0,0,0,0,0,0,0,0,0,0,0,0,0,0,0,0,0,0,0,0,0,0,0,0,0,0,0,0,0,0,0,0,0,0,0,
0,0,0,0,0,0,0,0,0,0,0,0,0,0,0,0,0,0,0,0,0,0,0,0,0,0,0,0,0,0,0,0,0,0,0,0,0,0,0,0,0,0,0,0,0,0,0,0,0,0,0,0,0,0,0,0,0,0,0,0,0,0,0,0,0,0,0,0,0,0,0,0,0,0,0,0,0,0,0,0,0,0,0,0,0,0,0,0,0,0,0,0,0,0,0,0,0,0,0,0,0,
0,0,0,0,0,0,0,0,0,0,0,0,0,0,0,0,0,0,0,0,0,0,0,0,0,0,0,0,0,0,0,0,0,0,0,0,0,0,0,0,0,0,0,0,0,0,0,0,0,0,0,0,0,0,0,0,0,0,0,0,0,0,0,0,0,0,0,0,0,0,0,0,0,0,0,0,0,0,0,0,0,0,0,0,0,0,0,0,0,0,0,0,0,0,0,0,0,0,0,0,0,
0,0,0,0,0,0,0,0,0,0,0,0,0,0,0,0,0,0,0,0,0,0,0,0,0,0,0,0,0,0,0,0,0,0,0,0,0,0,0,0,0,0,0,0,0,0,0,0,0,0,0,0,0,0,0,0,0,0,0,0,0,0,0,0,0,0,0,0,0,0,0,0,0,0,0,0,0,0,0,0,0,0,0,0,0,0,0,0,0,0,0,0,0,0,0,0,0,0,0,0,0,
0,0,0,0,0,0,0,0,0,0,0,0,0,0,0,0,0,0,0,0,0,0,0,0,0,0,0,0,0,0,0,0,0,0,0,0,0,0,0,0,0,0,0,0,0,0,0,0,0,0,0,0,0,0,0,0,0,0,0,0,0,0,0,0,0,0,0,0,0,0,0,0,0,0,0,0,0,0,0,0,0,0,0,0,0,0,0,0,0,0,0,0,0,0,0,0,0,0,0,0,0,
0,0,0,0,0,0,0,0,0,0,0,0,0,0,0,0,0,0,0,0,0,0,0,0,0,0,0,0,0,0,0,0,0,0,0,0,0,0,0,0,0,0,0,0,0,0,0,0,0,0,0,0,0,0,0,0,0,0,0,0,0,0,0,0,0,0,0,0,0,0,0,0,0,0,0,0,0,0,0,0,0,0,0,0,0,0,0,0,0,0,0,0,0,0,0,0,0,0,0,0,0,
0,0,0,0,0,0,0,0,0,0,0,0,0,0,0,0,0,0,0,0,0,0,0,0,0,0,0,0,0,0,0,0,0,0,0,0,0,0,0,0,0,0,0,0,0,0,0,0,0,0,0,0,0,0,0,0,0,0,0,0,0,0,0,0,0,0,0,0,0,0,0,0,0,0,0,0,0,0,0,0,0,0,0,0,0,0,0,0,0,0,0,0,0,0,0,0,0,0,0,0,0,
0,0,0,0,0,0,0,0,0,0,0,0,0,0,0,0,0,0,0,0,0,0,0,0,0,0,0,0,0,0,0,0,0,0,0,0,0,0,0,0,0,0,0,0,0,0,0,0,0,0,0,0,0,0,0,0,0,0,0,0,0,0,0,0,0,0,0,0,0,0,0,0,0,0,0,0,0,0,0,0,0,0,0,0,0,0,0,0,0,0,0,0,0,0,0,0,0,0,0,0,0,
0,0,0,0,0,0,0,0,0,0,0,0,0,0,0,0,0,0,0,0,0,0,0,0,0,0,0,0,0,0,0,0,0,0,0,0,0,0,0,0,0,0,0,0,0,0,0,0,0,0,0,0,0,0,0,0,0,0,0,0,0,0,0,0,0,0,0,0,0,0,0,0,0,0,0,0,0,0,0,0,0,0,0,0,0,0,0,0,0,0,0,0,0,0,0,0,0,0,0,0,0,
0,0,0,0,0,0,0,0,0,0,0,0,0,0,0,0,0,0,0,0,0,0,0,0,0,0,0,0,0,0,0,0,0,0,0,0,0,0,0,0,0,0,0,0,0,0,0,0,0,0,0,0,0,0,0,0,0,0,0,0,0,0,0,0,0,0,0,0,0,0,0,0,0,0,0,0,0,0,0,0,0,0,0,0,0,0,0,0,0,0,0,0,0,0,0,0,0,0,0,0,0,
0,0,0,0,0,0,0,0,0,0,0,0,0,0,0,0,0,0,0,0,0,0,0,0,0,0,0,0,0,0,0,0,0,0,0,0,0,0,0,0,0,0,0,0,0,0,0,0,0,0,0,0,0,0,0,0,0,0,0,0,0,0,0,0,0,0,0,0,0,0,0,0,0,0,0,0,0,0,0,0,0,0,0,0,0,0,0,0,0,0,0,0,0,0,0,0,0,0,0,0,0,
0,0,0,0,0,0,0,0,0,0,0,0,0,0,0,0,0,0,0,0,0,0,0,0,0,0,0,0,0,0,0,0,0,0,0,0,0,0,0,0,0,0,0,0,0,0,0,0,0,0,0,0,0,0,0,0,0,0,0,0,0,0,0,0,0,0,0,0,0,0,0,0,0,0,0,0,0,0,0,0,0,0,0,0,0,0,0,0,0,0,0,0,0,0,0,0,0,0,0,0,0,
0,0,0,0,0,0,0,0,0,0,0,0,0,0,0,0,0,0,0,0,0,0,0,0,0,0,0,0,0,0,0,0,0,0,0,0,0,0,0,0,0,0,0,0,0,0,0,0,0,0,0,0,0,0,0,0,0,0,0,0,0,0,0,0,0,0,0,0,0,0,0,0,0,0,0,0,0,0,0,0,0,0,0,0,0,0,0,0,0,0,0,0,0,0,0,0,0,0,0,0,0,
0,0,0,0,0,0,0,0,0,0,0,0,0,0,0,0,0,0,0,0,0,0,0,0,0,0,0,0,0,0,0,0,0,0,0,0,0,0,0,0,0,0,0,0,0,0,0,0,0,0,0,0,0,0,0,0,0,0,0,0,0,0,0,0,0,0,0,0,0,0,0,0,0,0,0,0,0,0,0,0,0,0,0,0,0,0,0,0,0,0,0,0,0,0,0,0,0,0,0,0,0,
0,0,0,0,0,0,0,0,0,0,0,0,0,0,0,0,0,0,0,0,0,0,0,0,0,0,0,0,0,0,0,0,0,0,0,0,0,0,0,0,0,0,0,0,0,0,0,0,0,0,0,0,0,0,0,0,0,0,0,0,0,0,0,0,0,0,0,0,0,0,0,0,0,0,0,0,0,0,0,0,0,0,0,0,0,0,0,0,0,0,0,0,0,0,0,0,0,0,0,0,0,
0,0,0,0,0,0,0,0,0,0,0,0,0,0,0,0,0,0,0,0,0,0,0,0,0,0,0,0,0,0,0,0,0,0,0,0,0,0,0,0,0,0,0,0,0,0,0,0,0,0,0,0,0,0,0,0,0,0,0,0,0,0,0,0,0,0,0,0,0,0,0,0,0,0,0,0,0,0,0,0,0,0,0,0,0,0,0,0,0,0,0,0,0,0,0,0,0,0,0,0,0,
0,0,0,0,0,0,0,0,0,0,0,0,0,0,0,0,0,0,0,0,0,0,0,0,0,0,0,0,0,0,0,0,0,0,0,0,0,0,0,0,0,0,0,0,0,0,0,0,0,0,0,0,0,0,0,0,0,0,0,0,0,0,0,0,0,0,0,0,0,0,0,0,0,0,0,0,0,0,0,0,0,0,0,0,0,0,0,0,0,0,0,0,0,0,0,0,0,0,0,0,0,
0,0,0,0,0,0,0,0,0,0,0,0,0,0,0,0,0,0,0,0,0,0,0,0,0,0,0,0,0,0,0,0,0,0,0,0,0,0,0,0,0,0,0,0,0,0,0,0,0,0,0,0,0,0,0,0,0,0,0,0,0,0,0,0,0,0,0,0,0,0,0,0,0,0,0,0,0,0,0,0,0,0,0,0,0,0,0,0,0,0,0,0,0,0,0,0,0,0,0,0,0,
0,0,0,0,0,0,0,0,0,0,0,0,0,0,0,0,0,0,0,0,0,0,0,0,0,0,0,0,0,0,0,0,0,0,0,0,0,0,0,0,0,0,0,0,0,0,0,0,0,0,0,0,0,0,0,0,0,0,0,0,0,0,0,0,0,0,0,0,0,0,0,0,0,0,0,0,0,0,0,0,0,0,0,0,0,0,0,0,0,0,0,0,0,0,0,0,0,0,0,0,0,
0,0,0,0,0,0,0,0,0,0,0,0,0,0,0,0,0,0,0,0,0,0,0,0,0,0,0,0,0,0,0,0,0,0,0,0,0,0,0,0,0,0,0,0,0,0,0,0,0,0,0,0,0,0,0,0,0,0,0,0,0,0,0,0,0,0,0,0,0,0,0,0,0,0,0,0,0,0,0,0,0,0,0,0,0,0,0,0,0,0,0,0,0,0,0,0,0,0,0,0,0,
0,0,0,0,0,0,0,0,0,0,0,0,0,0,0,0,0,0,0,0,0,0,0,0,0,0,0,0,0,0,0,0,0,0,0,0,0,0,0,0,0,0,0,0,0,0,0,0,0,0,0,0,0,0,0,0,0,0,0,0,0,0,0,0,0,0,0,0,0,0,0,0,0,0,0,0,0,0,0,0,0,0,0,0,0,0,0,0,0,0,0,0,0,0,0,0,0,0,0,0,0,
0,0,0,0,0,0,0,0,0,0,0,0,0,0,0,0,0,0,0,0,0,0,0,0,0,0,0,0,0,0,0,0,0,0,0,0,0,0,0,0,0,0,0,0,0,0,0,0,0,0,0,0,0,0,0,0,0,0,0,0,0,0,0,0,0,0,0,0,0,0,0,0,0,0,0,0,0,0,0,0,0,0,0,0,0,0,0,0,0,0,0,0,0,0,0,0,0,0,0,0,0,
0,0,0,0,0,0,0,0,0,0,0,0,0,0,0,0,0,0,0,0,0,0,0,0,0,0,0,0,0,0,0,0,0,0,0,0,0,0,0,0,0,0,0,0,0,0,0,0,0,0,0,0,0,0,0,0,0,0,0,0,0,0,0,0,0,0,0,0,0,0,0,0,0,0,0,0,0,0,0,0,0,0,0,0,0,0,0,0,0,0,0,0,0,0,0,0,0,0,0,0,0,
0,0,0,0,0,0,0,0,0,0,0,0,0,0,0,0,0,0,0,0,0,0,0,0,0,0,0,0,0,0,0,0,0,0,0,0,0,0,0,0,0,0,0,0,0,0,0,0,0,0,0,0,0,0,0,0,0,0,0,0,0,0,0,0,0,0,0,0,0,0,0,0,0,0,0,0,0,0,0,0,0,0,0,0,0,0,0,0,0,0,0,0,0,0,0,0,0,0,0,0,0,
0,0,0,0,0,0,0,0,0,0,0,0,0,0,0,0,0,0,0,0,0,0,0,0,0,0,0,0,0,0,0,0,0,0,0,0,0,0,0,0,0,0,0,0,0,0,0,0,0,0,0,0,0,0,0,0,0,0,0,0,0,0,0,0,0,0,0,0,0,0,0,0,0,0,0,0,0,0,0,0,0,0,0,0,0,0,0,0,0,0,0,0,0,0,0,0,0,0,0,0,0,
0,0,0,0,0,0,0,0,0,0,0,0,0,0,0,0,0,0,0,0,0,0,0,0,0,0,0,0,0,0,0,0,0,0,0,0,0,0,0,0,0,0,0,0,0,0,0,0,0,0,0,0,0,0,0,0,0,0,0,0,0,0,0,0,0,0,0,0,0,0,0,0,0,0,0,0,0,0,0,0,0,0,0,0,0,0,0,0,0,0,0,0,0,0,0,0,0,0,0,0,0,
0,0,0,0,0,0,0,0,0,0,0,0,0,0,0,0,0,0,0,0,0,0,0,0,0,0,0,0,0,0,0,0,0,0,0,0,0,0,0,0,0,0,0,0,0,0,0,0,0,0,0,0,0,0,0,0,0,0,0,0,0,0,0,0,0,0,0,0,0,0,0,0,0,0,0,0,0,0,0,0,0,0,0,0,0,0,0,0,0,0,0,0,0,0,0,0,0,0,0,0,0,
0,0,0,0,0,0,0,0,0,0,0,0,0,0,0,0,0,0,0,0,0,0,0,0,0,0,0,0,0,0,0,0,0,0,0,0,0,0,0,0,0,0,0,0,0,0,0,0,0,0,0,0,0,0,0,0,0,0,0,0,0,0,0,0,0,0,0,0,0,0,0,0,0,0,0,0,0,0,0,0,0,0,0,0,0,0,0,0,0,0,0,0,0,0,0,0,0,0,0,0,0,
0,0,0,0,0,0,0,0,0,0,0,0,0,0,0,0,0,0,0,0,0,0,0,0,0,0,0,0,0,0,0,0,0,0,0,0,0,0,0,0,0,0,0,0,0,0,0,0,0,0,0,0,0,0,0,0,0,0,0,0,0,0,0,0,0,0,0,0,0,0,0,0,0,0,0,0,0,0,0,0,0,0,0,0,0,0,0,0,0,0,0,0,0,0,0,0,0,0,0,0,0,
0,0,0,0,0,0,0,0,0,0,0,0,0,0,0,0,0,0,0,0,0,0,0,0,0,0,0,0,0,0,0,0,0,0,0,0,0,0,0,0,0,0,0,0,0,0,0,0,0,0,0,0,0,0,0,0,0,0,0,0,0,0,0,0,0,0,0,0,0,0,0,0,0,0,0,0,0,0,0,0,0,0,0,0,0,0,0,0,0,0,0,0,0,0,0,0,0,0,0,0,0,
0,0,0,0,0,0,0,0,0,0,0,0,0,0,0,0,0,0,0,0,0,0,0,0,0,0,0,0,0,0,0,0,0,0,0,0,0,0,0,0,0,0,0,0,0,0,0,0,0,0,0,0,0,0,0,0,0,0,0,0,0,0,0,0,0,0,0,0,0,0,0,0,0,0,0,0,0,0,0,0,0,0,0,0,0,0,0,0,0,0,0,0,0,0,0,0,0,0,0,0,0,
0,0,0,0,0,0,0,0,0,0,0,0,0,0,0,0,0,0,0,0,0,0,0,0,0,0,0,0,0,0,0,0,0,0,0,0,0,0,0,0,0,0,0,0,0,0,0,0,0,0,0,0,0,0,0,0,0,0,0,0,0,0,0,0,0,0,0,0,0,0,0,0,0,0,0,0,0,0,0,0,0,0,0,0,0,0,0,0,0,0,0,0,0,0,0,0,0,0,0,0,0,
0,0,0,0,0,0,0,0,0,0,0,0,0,0,0,0,0,0,0,0,0,0,0,0,0,0,0,0,0,0,0,0,0,0,0,0,0,0,0,0,0,0,0,0,0,0,0,0,0,0,0,0,0,0,0,0,0,0,0,0,0,0,0,0,0,0,0,0,0,0,0,0,0,0,0,0,0,0,0,0,0,0,0,0,0,0,0,0,0,0,0,0,0,0,0,0,0,0,0,0,0,
0,0,0,0,0,0,0,0,0,0,0,0,0,0,0,0,0,0,0,0,0,0,0,0,0,0,0,0,0,0,0,0,0,0,0,0,0,0,0,0,0,0,0,0,0,0,0,0,0,0,0,0,0,0,0,0,0,0,0,0,0,0,0,0,0,0,0,0,0,0,0,0,0,0,0,0,0,0,0,0,0,0,0,0,0,0,0,0,0,0,0,0,0,0,0,0,0,0,0,0,0,
0,0,0,0,0,0,0,0,0,0,0,0,0,0,0,0,0,0,0,0,0,0,0,0,0,0,0,0,0,0,0,0,0,0,0,0,0,0,0,0,0,0,0,0,0,0,0,0,0,0,0,0,0,0,0,0,0,0,0,0,0,0,0,0,0,0,0,0,0,0,0,0,0,0,0,0,0,0,0,0,0,0,0,0,0,0,0,0,0,0,0,0,0,0,0,0,0,0,0,0,0,
0,0,0,0,0,0,0,0,0,0,0,0,0,0,0,0,0,0,0,0,0,0,0,0,0,0,0,0,0,0,0,0,0,0,0,0,0,0,0,0,0,0,0,0,0,0,0,0,0,0,0,0,0,0,0,0,0,0,0,0,0,0,0,0,0,0,0,0,0,0,0,0,0,0,0,0,0,0,0,0,0,0,0,0,0,0,0,0,0,0,0,0,0,0,0,0,0,0,0,0,0,
0,0,0,0,0,0,0,0,0,0,0,0,0,0,0,0,0,0,0,0,0,0,0,0,0,0,0,0,0,0,0,0,0,0,0,0,0,0,0,0,0,0,0,0,0,0,0,0,0,0,0,0,0,0,0,0,0,0,0,0,0,0,0,0,0,0,0,0,0,0,0,0,0,0,0,0,0,0,0,0,0,0,0,0,0,0,0,0,0,0,0,0,0,0,0,0,0,0,0,0,0,
0,0,0,0,0,0,0,0,0,0,0,0,0,0,0,0,0,0,0,0,0,0,0,0,0,0,0,0,0,0,0,0,0,0,0,0,0,0,0,0,0,0,0,0,0,0,0,0,0,0,0,0,0,0,0,0,0,0,0,0,0,0,0,0,0,0,0,0,0,0,0,0,0,0,0,0,0,0,0,0,0,0,0,0,0,0,0,0,0,0,0,0,0,0,0,0,0,0,0,0,0,
0,0,0,0,0,0,0,0,0,0,0,0,0,0,0,0,0,0,0,0,0,0,0,0,0,0,0,0,0,0,0,0,0,0,0,0,0,0,0,0,0,0,0,0,0,0,0,0,0,0,0,0,0,0,0,0,0,0,0,0,0,0,0,0,0,0,0,0,0,0,0,0,0,0,0,0,0,0,0,0,0,0,0,0,0,0,0,0,0,0,0,0,0,0,0,0,0,0,0,0,0,
0,0,0,0,0,0,0,0,0,0,0,0,0,0,0,0,0,0,0,0,0,0,0,0,0,0,0,0,0,0,0,0,0,0,0,0,0,0,0,0,0,0,0,0,0,0,0,0,0,0,0,0,0,0,0,0,0,0,0,0,0,0,0,0,0,0,0,0,0,0,0,0,0,0,0,0,0,0,0,0,0,0,0,0,0,0,0,0,0,0,0,0,0,0,0,0,0,0,0,0,0,
0,0,0,0,0,0,0,0,0,0,0,0,0,0,0,0,0,0,0,0,0,0,0,0,0,0,0,0,0,0,0,0,0,0,0,0,0,0,0,0,0,0,0,0,0,0,0,0,0,0,0,0,0,0,0,0,0,0,0,0,0,0,0,0,0,0,0,0,0,0,0,0,0,0,0,0,0,0,0,0,0,0,0,0,0,0,0,0,0,0,0,0,0,0,0,0,0,0,0,0,0,
0,0,0,0,0,0,0,0,0,0,0,0,0,0,0,0,0,0,0,0,0,0,0,0,0,0,0,0,0,0,0,0,0,0,0,0,0,0,0,0,0,0,0,0,0,0,0,0,0,0,0,0,0,0,0,0,0,0,0,0,0,0,0,0,0,0,0,0,0,0,0,0,0,0,0,0,0,0,0,0,0,0,0,0,0,0,0,0,0,0,0,0,0,0,0,0,0,0,0,0,0,
0,0,0,0,0,0,0,0,0,0,0,0,0,0,0,0,0,0,0,0,0,0,0,0,0,0,0,0,0,0,0,0,0,0,0,0,0,0,0,0,0,0,0,0,0,0,0,0,0,0,0,0,0,0,0,0,0,0,0,0,0,0,0,0,0,0,0,0,0,0,0,0,0,0,0,0,0,0,0,0,0,0,0,0,0,0,0,0,0,0,0,0,0,0,0,0,0,0,0,0,0,
0,0,0,0,0,0,0,0,0,0,0,0,0,0,0,0,0,0,0,0,0,0,0,0,0,0,0,0,0,0,0,0,0,0,0,0,0,0,0,0,0,0,0,0,0,0,0,0,0,0,0,0,0,0,0,0,0,0,0,0,0,0,0,0,0,0,0,0,0,0,0,0,0,0,0,0,0,0,0,0,0,0,0,0,0,0,0,0,0,0,0,0,0,0,0,0,0,0,0,0,0,
0,0,0,0,0,0,0,0,0,0,0,0,0,0,0,0,0,0,0,0,0,0,0,0,0,0,0,0,0,0,0,0,0,0,0,0,0,0,0,0,0,0,0,0,0,0,0,0,0,0,0,0,0,0,0,0,0,0,0,0,0,0,0,0,0,0,0,0,0,0,0,0,0,0,0,0,0,0,0,0,0,0,0,0,0,0,0,0,0,0,0,0,0,0,0,0,0,0,0,0,0,
0,0,0,0,0,0,0,0,0,0,0,0,0,0,0,0,0,0,0,0,0,0,0,0,0,0,0,0,0,0,0,0,0,0,0,0,0,0,0,0,0,0,0,0,0,0,0,0,0,0,0,0,0,0,0,0,0,0,0,0,0,0,0,0,0,0,0,0,0,0,0,0,0,0,0,0,0,0,0,0,0,0,0,0,0,0,0,0,0,0,0,0,0,0,0,0,0,0,0,0,0,
0,0,0,0,0,0,0,0,0,0,0,0,0,0,0,0,0,0,0,0,0,0,0,0,0,0,0,0,0,0,0,0,0,0,0,0,0,0,0,0,0,0,0,0,0,0,0,0,0,0,0,0,0,0,0,0,0,0,0,0,0,0,0,0,0,0,0,0,0,0,0,0,0,0,0,0,0,0,0,0,0,0,0,0,0,0,0,0,0,0,0,0,0,0,0,0,0,0,0,0,0,
0,0,0,0,0,0,0,0,0,0,0,0,0,0,0,0,0,0,0,0,0,0,0,0,0,0,0,0,0,0,0,0,0,0,0,0,0,0,0,0,0,0,0,0,0,0,0,0,0,0,0,0,0,0,0,0,0,0,0,0,0,0,0,0,0,0,0,0,0,0,0,0,0,0,0,0,0,0,0,0,0,0,0,0,0,0,0,0,0,0,0,0,0,0,0,0,0,0,0,0,0,
0,0,0,0,0,0,0,0,0,0,0,0,0,0,0,0,0,0,0,0,0,0,0,0,0,0,0,0,0,0,0,0,0,0,0,0,0,0,0,0,0,0,0,0,0,0,0,0,0,0,0,0,0,0,0,0,0,0,0,0,0,0,0,0,0,0,0,0,0,0,0,0,0,0,0,0,0,0,0,0,0,0,0,0,0,0,0,0,0,0,0,0,0,0,0,0,0,0,0,0,0,
0,0,0,0,0,0,0,0,0,0,0,0,0,0,0,0,0,0,0,0,0,0,0,0,0,0,0,0,0,0,0,0,0,0,0,0,0,0,0,0,0,0,0,0,0,0,0,0,0,0,0,0,0,0,0,0,0,0,0,0,0,0,0,0,0,0,0,0,0,0,0,0,0,0,0,0,0,0,0,0,0,0,0,0,0,0,0,0,0,0,0,0,0,0,0,0,0,0,0,0,0,
0,0,0,0,0,0,0,0,0,0,0,0,0,0,0,0,0,0,0,0,0,0,0,0,0,0,0,0,0,0,0,0,0,0,0,0,0,0,0,0,0,0,0,0,0,0,0,0,0,0,0,0,0,0,0,0,0,0,0,0,0,0,0,0,0,0,0,0,0,0,0,0,0,0,0,0,0,0,0,0,0,0,0,0,0,0,0,0,0,0,0,0,0,0,0,0,0,0,0,0,0,
0,0,0,0,0,0,0,0,0,0,0,0,0,0,0,0,0,0,0,0,0,0,0,0,0,0,0,0,0,0,0,0,0,0,0,0,0,0,0,0,0,0,0,0,0,0,0,0,0,0,0,0,0,0,0,0,0,0,0,0,0,0,0,0,0,0,0,0,0,0,0,0,0,0,0,0,0,0,0,0,0,0,0,0,0,0,0,0,0,0,0,0,0,0,0,0,0,0,0,0,0,
0,0,0,0,0,0,0,0,0,0,0,0,0,0,0,0,0,0,0,0,0,0,0,0,0,0,0,0,0,0,0,0,0,0,0,0,0,0,0,0,0,0,0,0,0,0,0,0,0,0,0,0,0,0,0,0,0,0,0,0,0,0,0,0,0,0,0,0,0,0,0,0,0,0,0,0,0,0,0,0,0,0,0,0,0,0,0,0,0,0,0,0,0,0,0,0,0,0,0,0,0,
0,0,0,0,0,0,0,0,0,0,0,0,0,0,0,0,0,0,0,0,0,0,0,0,0,0,0,0,0,0,0,0,0,0,0,0,0,0,0,0,0,0,0,0,0,0,0,0,0,0,0,0,0,0,0,0,0,0,0,0,0,0,0,0,0,0,0,0,0,0,0,0,0,0,0,0,0,0,0,0,0,0,0,0,0,0,0,0,0,0,0,0,0,0,0,0,0,0,0,0,0,
0,0,0,0,0,0,0,0,0,0,0,0,0,0,0,0,0,0,0,0,0,0,0,0,0,0,0,0,0,0,0,0,0,0,0,0,0,0,0,0,0,0,0,0,0,0,0,0,0,0,0,0,0,0,0,0,0,0,0,0,0,0,0,0,0,0,0,0,0,0,0,0,0,0,0,0,0,0,0,0,0,0,0,0,0,0,0,0,0,0,0,0,0,0,0,0,0,0,0,0,0,
0,0,0,0,0,0,0,0,0,0,0,0,0,0,0,0,0,0,0,0,0,0,0,0,0,0,0,0,0,0,0,0,0,0,0,0,0,0,0,0,0,0,0,0,0,0,0,0,0,0,0,0,0,0,0,0,0,0,0,0,0,0,0,0,0,0,0,0,0,0,0,0,0,0,0,0,0,0,0,0,0,0,0,0,0,0,0,0,0,0,0,0,0,0,0,0,0,0,0,0,0,
0,0,0,0,0,0,0,0,0,0,0,0,0,0,0,0,0,0,0,0,0,0,0,0,0,0,0,0,0,0,0,0,0,0,0,0,0,0,0,0,0,0,0,0,0,0,0,0,0,0,0,0,0,0,0,0,0,0,0,0,0,0,0,0,0,0,0,0,0,0,0,0,0,0,0,0,0,0,0,0,0,0,0,0,0,0,0,0,0,0,0,0,0,0,0,0,0,0,0,0,0,
0,0,0,0,0,0,0,0,0,0,0,0,0,0,0,0,0,0,0,0,0,0,0,0,0,0,0,0,0,0,0,0,0,0,0,0,0,0,0,0,0,0,0,0,0,0,0,0,0,0,0,0,0,0,0,0,0,0,0,0,0,0,0,0,0,0,0,0,0,0,0,0,0,0,0,0,0,0,0,0,0,0,0,0,0,0,0,0,0,0,0,0,0,0,0,0,0,0,0,0,0,
0,0,0,0,0,0,0,0,0,0,0,0,0,0,0,0,0,0,0,0,0,0,0,0,0,0,0,0,0,0,0,0,0,0,0,0,0,0,0,0,0,0,0,0,0,0,0,0,0,0,0,0,0,0,0,0,0,0,0,0,0,0,0,0,0,0,0,0,0,0,0,0,0,0,0,0,0,0,0,0,0,0,0,0,0,0,0,0,0,0,0,0,0,0,0,0,0,0,0,0,0,
0,0,0,0,0,0,0,0,0,0,0,0,0,0,0,0,0,0,0,0,0,0,0,0,0,0,0,0,0,0,0,0,0,0,0,0,0,0,0,0,0,0,0,0,0,0,0,0,0,0,0,0,0,0,0,0,0,0,0,0,0,0,0,0,0,0,0,0,0,0,0,0,0,0,0,0,0,0,0,0,0,0,0,0,0,0,0,0,0,0,0,0,0,0,0,0,0,0,0,0,0,
0,0,0,0,0,0,0,0,0,0,0,0,0,0,0,0,0,0,0,0,0,0,0,0,0,0,0,0,0,0,0,0,0,0,0,0,0,0,0,0,0,0,0,0,0,0,0,0,0,0,0,0,0,0,0,0,0,0,0,0,0,0,0,0,0,0,0,0,0,0,0,0,0,0,0,0,0,0,0,0,0,0,0,0,0,0,0,0,0,0,0,0,0,0,0,0,0,0,0,0,0,
0,0,0,0,0,0,0,0,0,0,0,0,0,0,0,0,0,0,0,0,0,0,0,0,0,0,0,0,0,0,0,0,0,0,0,0,0,0,0,0,0,0,0,0,0,0,0,0,0,0,0,0,0,0,0,0,0,0,0,0,0,0,0,0,0,0,0,0,0,0,0,0,0,0,0,0,0,0,0,0,0,0,0,0,0,0,0,0,0,0,0,0,0,0,0,0,0,0,0,0,0,
0,0,0,0,0,0,0,0,0,0,0,0,0,0,0,0,0,0,0,0,0,0,0,0,0,0,0,0,0,0,0,0,0,0,0,0,0,0,0,0,0,0,0,0,0,0,0,0,0,0,0,0,0,0,0,0,0,0,0,0,0,0,0,0,0,0,0,0,0,0,0,0,0,0,0,0,0,0,0,0,0,0,0,0,0,0,0,0,0,0,0,0,0,0,0,0,0,0,0,0,0,
0,0,0,0,0,0,0,0,0,0,0,0,0,0,0,0,0,0,0,0,0,0,0,0,0,0,0,0,0,0,0,0,0,0,0,0,0,0,0,0,0,0,0,0,0,0,0,0,0,0,0,0,0,0,0,0,0,0,0,0,0,0,0,0,0,0,0,0,0,0,0,0,0,0,0,0,0,0,0,0,0,0,0,0,0,0,0,0,0,0,0,0,0,0,0,0,0,0,0,0,0,
0,0,0,0,0,0,0,0,0,0,0,0,0,0,0,0,0,0,0,0,0,0,0,0,0,0,0,0,0,0,0,0,0,0,0,0,0,0,0,0,0,0,0,0,0,0,0,0,0,0,0,0,0,0,0,0,0,0,0,0,0,0,0,0,0,0,0,0,0,0,0,0,0,0,0,0,0,0,0,0,0,0,0,0,0,0,0,0,0,0,0,0,0,0,0,0,0,0,0,0,0,
0,0,0,0,0,0,0,0,0,0,0,0,0,0,0,0,0,0,0,0,0,0,0,0,0,0,0,0,0,0,0,0,0,0,0,0,0,0,0,0,0,0,0,0,0,0,0,0,0,0,0,0,0,0,0,0,0,0,0,0,0,0,0,0,0,0,0,0,0,0,0,0,0,0,0,0,0,0,0,0,0,0,0,0,0,0,0,0,0,0,0,0,0,0,0,0,0,0,0,0,0,
0,0,0,0,0,0,0,0,0,0,0,0,0,0,0,0,0,0,0,0,0,0,0,0,0,0,0,0,0,0,0,0,0,0,0,0,0,0,0,0,0,0,0,0,0,0,0,0,0,0,0,0,0,0,0,0,0,0,0,0,0,0,0,0,0,0,0,0,0,0,0,0,0,0,0,0,0,0,0,0,0,0,0,0,0,0,0,0,0,0,0,0,0,0,0,0,0,0,0,0,0,
0,0,0,0,0,0,0,0,0,0,0,0,0,0,0,0,0,0,0,0,0,0,0,0,0,0,0,0,0,0,0,0,0,0,0,0,0,0,0,0,0,0,0,0,0,0,0,0,0,0,0,0,0,0,0,0,0,0,0,0,0,0,0,0,0,0,0,0,0,0,0,0,0,0,0,0,0,0,0,0,0,0,0,0,0,0,0,0,0,0,0,0,0,0,0,0,0,0,0,0,0,
0,0,0,0,0,0,0,0,0,0,0,0,0,0,0,0,0,0,0,0,0,0,0,0,0,0,0,0,0,0,0,0,0,0,0,0,0,0,0,0,0,0,0,0,0,0,0,0,0,0,0,0,0,0,0,0,0,0,0,0,0,0,0,0,0,0,0,0,0,0,0,0,0,0,0,0,0,0,0,0,0,0,0,0,0,0,0,0,0,0,0,0,0,0,0,0,0,0,0,0,0,
0,0,0,0,0,0,0,0,0,0,0,0,0,0,0,0,0,0,0,0,0,0,0,0,0,0,0,0,0,0,0,0,0,0,0,0,0,0,0,0,0,0,0,0,0,0,0,0,0,0,0,0,0,0,0,0,0,0,0,0,0,0,0,0,0,0,0,0,0,0,0,0,0,0,0,0,0,0,0,0,0,0,0,0,0,0,0,0,0,0,0,0,0,0,0,0,0,0,0,0,0,
0,0,0,0,0,0,0,0,0,0,0,0,0,0,0,0,0,0,0,0,0,0,0,0,0,0,0,0,0,0,0,0,0,0,0,0,0,0,0,0,0,0,0,0,0,0,0,0,0,0,0,0,0,0,0,0,0,0,0,0,0,0,0,0,0,0,0,0,0,0,0,0,0,0,0,0,0,0,0,0,0,0,0,0,0,0,0,0,0,0,0,0,0,0,0,0,0,0,0,0,0,
0,0,0,0,0,0,0,0,0,0,0,0,0,0,0,0,0,0,0,0,0,0,0,0,0,0,0,0,0,0,0,0,0,0,0,0,0,0,0,0,0,0,0,0,0,0,0,0,0,0,0,0,0,0,0,0,0,0,0,0,0,0,0,0,0,0,0,0,0,0,0,0,0,0,0,0,0,0,0,0,0,0,0,0,0,0,0,0,0,0,0,0,0,0,0,0,0,0,0,0,0,
0,0,0,0,0,0,0,0,0,0,0,0,0,0,0,0,0,0,0,0,0,0,0,0,0,0,0,0,0,0,0,0,0,0,0,0,0,0,0,0,0,0,0,0,0,0,0,0,0,0,0,0,0,0,0,0,0,0,0,0,0,0,0,0,0,0,0,0,0,0,0,0,0,0,0,0,0,0,0,0,0,0,0,0,0,0,0,0,0,0,0,0,0,0,0,0,0,0,0,0,0,
0,0,0,0,0,0,0,0,0,0,0,0,0,0,0,0,0,0,0,0,0,0,0,0,0,0,0,0,0,0,0,0,0,0,0,0,0,0,0,0,0,0,0,0,0,0,0,0,0,0,0,0,0,0,0,0,0,0,0,0,0,0,0,0,0,0,0,0,0,0,0,0,0,0,0,0,0,0,0,0,0,0,0,0,0,0,0,0,0,0,0,0,0,0,0,0,0,0,0,0,0,
0,0,0,0,0,0,0,0,0,0,0,0,0,0,0,0,0,0,0,0,0,0,0,0,0,0,0,0,0,0,0,0,0,0,0,0,0,0,0,0,0,0,0,0,0,0,0,0,0,0,0,0,0,0,0,0,0,0,0,0,0,0,0,0,0,0,0,0,0,0,0,0,0,0,0,0,0,0,0,0,0,0,0,0,0,0,0,0,0,0,0,0,0,0,0,0,0,0,0,0,0,
0,0,0,0,0,0,0,0,0,0,0,0,0,0,0,0,0,0,0,0,0,0,0,0,0,0,0,0,0,0,0,0,0,0,0,0,0,0,0,0,0,0,0,0,0,0,0,0,0,0,0,0,0,0,0,0,0,0,0,0,0,0,0,0,0,0,0,0,0,0,0,0,0,0,0,0,0,0,0,0,0,0,0,0,0,0,0,0,0,0,0,0,0,0,0,0,0,0,0,0,0,
0,0,0,0,0,0,0,0,0,0,0,0,0,0,0,0,0,0,0,0,0,0,0,0,0,0,0,0,0,0,0,0,0,0,0,0,0,0,0,0,0,0,0,0,0,0,0,0,0,0,0,0,0,0,0,0,0,0,0,0,0,0,0,0,0,0,0,0,0,0,0,0,0,0,0,0,0,0,0,0,0,0,0,0,0,0,0,0,0,0,0,0,0,0,0,0,0,0,0,0,0,
0,0,0,0,0,0,0,0,0,0,0,0,0,0,0,0,0,0,0,0,0,0,0,0,0,0,0,0,0,0,0,0,0,0,0,0,0,0,0,0,0,0,0,0,0,0,0,0,0,0,0,0,0,0,0,0,0,0,0,0,0,0,0,0,0,0,0,0,0,0,0,0,0,0,0,0,0,0,0,0,0,0,0,0,0,0,0,0,0,0,0,0,0,0,0,0,0,0,0,0,0,
0,0,0,0,0,0,0,0,0,0,0,0,0,0,0,0,0,0,0,0,0,0,0,0,0,0,0,0,0,0,0,0,0,0,0,0,0,0,0,0,0,0,0,0,0,0,0,0,0,0,0,0,0,0,0,0,0,0,0,0,0,0,0,0,0,0,0,0,0,0,0,0,0,0,0,0,0,0,0,0,0,0,0,0,0,0,0,0,0,0,0,0,0,0,0,0,0,0,0,0,0,
0,0,0,0,0,0,0,0,0,0,0,0,0,0,0,0,0,0,0,0,0,0,0,0,0,0,0,0,0,0,0,0,0,0,0,0,0,0,0,0,0,0,0,0,0,0,0,0,0,0,0,0,0,0,0,0,0,0,0,0,0,0,0,0,0,0,0,0,0,0,0,0,0,0,0,0,0,0,0,0,0,0,0,0,0,0,0,0,0,0,0,0,0,0,0,0,0,0,0,0,0,
0,0,0,0,0,0,0,0,0,0,0,0,0,0,0,0,0,0,0,0,0,0,0,0,0,0,0,0,0,0,0,0,0,0,0,0,0,0,0,0,0,0,0,0,0,0,0,0,0,0,0,0,0,0,0,0,0,0,0,0,0,0,0,0,0,0,0,0,0,0,0,0,0,0,0,0,0,0,0,0,0,0,0,0,0,0,0,0,0,0,0,0,0,0,0,0,0,0,0,0,0,
0,0,0,0,0,0,0,0,0,0,0,0,0,0,0,0,0,0,0,0,0,0,0,0,0,0,0,0,0,0,0,0,0,0,0,0,0,0,0,0,0,0,0,0,0,0,0,0,0,0,0,0,0,0,0,0,0,0,0,0,0,0,0,0,0,0,0,0,0,0,0,0,0,0,0,0,0,0,0,0,0,0,0,0,0,0,0,0,0,0,0,0,0,0,0,0,0,0,0,0,0,
0,0,0,0,0,0,0,0,0,0,0,0,0,0,0,0,0,0,0,0,0,0,0,0,0,0,0,0,0,0,0,0,0,0,0,0,0,0,0,0,0,0,0,0,0,0,0,0,0,0,0,0,0,0,0,0,0,0,0,0,0,0,0,0,0,0,0,0,0,0,0,0,0,0,0,0,0,0,0,0,0,0,0,0,0,0,0,0,0,0,0,0,0,0,0,0,0,0,0,0,0,
0,0,0,0,0,0,0,0,0,0,0,0,0,0,0,0,0,0,0,0,0,0,0,0,0,0,0,0,0,0,0,0,0,0,0,0,0,0,0,0,0,0,0,0,0,0,0,0,0,0,0,0,0,0,0,0,0,0,0,0,0,0,0,0,0,0,0,0,0,0,0,0,0,0,0,0,0,0,0,0,0,0,0,0,0,0,0,0,0,0,0,0,0,0,0,0,0,0,0,0,0,
0,0,0,0,0,0,0,0,0,0,0,0,0,0,0,0,0,0,0,0,0,0,0,0,0,0,0,0,0,0,0,0,0,0,0,0,0,0,0,0,0,0,0,0,0,0,0,0,0,0,0,0,0,0,0,0,0,0,0,0,0,0,0,0,0,0,0,0,0,0,0,0,0,0,0,0,0,0,0,0,0,0,0,0,0,0,0,0,0,0,0,0,0,0,0,0,0,0,0,0,0,
0,0,0,0,0,0,0,0,0,0,0,0,0,0,0,0,0,0,0,0,0,0,0,0,0,0,0,0,0,0,0,0,0,0,0,0,0,0,0,0,0,0,0,0,0,0,0,0,0,0,0,0,0,0,0,0,0,0,0,0,0,0,0,0,0,0,0,0,0,0,0,0,0,0,0,0,0,0,0,0,0,0,0,0,0,0,0,0,0,0,0,0,0,0,0,0,0,0,0,0,0,
0,0,0,0,0,0,0,0,0,0,0,0,0,0,0,0,0,0,0,0,0,0,0,0,0,0,0,0,0,0,0,0,0,0,0,0,0,0,0,0,0,0,0,0,0,0,0,0,0,0,0,0,0,0,0,0,0,0,0,0,0,0,0,0,0,0,0,0,0,0,0,0,0,0,0,0,0,0,0,0,0,0,0,0,0,0,0,0,0,0,0,0,0,0,0,0,0,0,0,0,0,
0,0,0,0,0,0,0,0,0,0,0,0,0,0,0,0,0,0,0,0,0,0,0,0,0,0,0,0,0,0,0,0,0,0,0,0,0,0,0,0,0,0,0,0,0,0,0,0,0,0,0,0,0,0,0,0,0,0,0,0,0,0,0,0,0,0,0,0,0,0,0,0,0,0,0,0,0,0,0,0,0,0,0,0,0,0,0,0,0,0,0,0,0,0,0,0,0,0,0,0,0,
0,0,0,0,0,0,0,0,0,0,0,0,0,0,0,0,0,0,0,0,0,0,0,0,0,0,0,0,0,0,0,0,0,0,0,0,0,0,0,0,0,0,0,0,0,0,0,0,0,0,0,0,0,0,0,0,0,0,0,0,0,0,0,0,0,0,0,0,0,0,0,0,0,0,0,0,0,0,0,0,0,0,0,0,0,0,0,0,0,0,0,0,0,0,0,0,0,0,0,0,0,
0,0,0,0,0,0,0,0,0,0,0,0,0,0,0,0,0,0,0,0,0,0,0,0,0,0,0,0,0,0,0,0,0,0,0,0,0,0,0,0,0,0,0,0,0,0,0,0,0,0,0,0,0,0,0,0,0,0,0,0,0,0,0,0,0,0,0,0,0,0,0,0,0,0,0,0,0,0,0,0,0,0,0,0,0,0,0,0,0,0,0,0,0,0,0,0,0,0,0,0,0
</data>
 </layer>
 <layer id="8" name="road" width="101" height="101">
  <data encoding="csv">
0,0,0,0,0,0,0,0,0,0,0,0,0,0,0,0,0,0,0,0,0,0,0,0,0,0,0,0,0,0,0,0,0,0,0,0,0,0,0,0,0,0,0,0,0,0,0,0,0,0,0,0,0,0,0,0,0,0,0,0,0,0,0,0,0,0,0,0,0,0,0,0,0,0,0,0,0,0,0,0,0,0,0,0,0,0,0,0,0,0,0,0,0,0,0,0,0,0,0,0,0,
0,0,0,0,0,0,0,0,0,0,0,0,0,0,0,0,0,0,0,0,0,0,0,0,0,0,0,0,0,0,0,0,0,0,0,0,0,0,0,0,0,0,0,0,0,0,0,0,0,0,0,0,0,0,0,0,0,0,0,0,0,0,0,0,0,0,0,0,0,0,0,0,0,0,0,0,0,0,0,0,0,0,0,0,0,0,0,0,0,0,0,0,0,0,0,0,0,0,0,0,0,
0,0,0,0,0,0,0,0,0,0,0,0,0,0,0,0,0,0,0,0,0,0,0,0,0,0,0,0,0,0,0,0,0,0,0,0,0,0,0,0,0,0,0,0,0,0,0,0,0,0,0,0,0,0,0,0,0,0,0,0,0,0,0,0,0,0,0,0,0,0,0,0,0,0,0,0,0,0,0,0,0,0,0,0,0,0,0,0,0,0,0,0,0,0,0,0,0,0,0,0,0,
0,0,0,0,0,0,0,0,0,0,0,0,0,0,0,0,0,0,0,0,0,0,0,0,0,0,0,0,0,0,0,0,0,0,0,0,0,0,0,0,0,0,0,0,0,0,0,0,0,0,0,0,0,0,0,0,0,0,0,0,0,0,0,0,0,0,0,0,0,0,0,0,0,0,0,0,0,0,0,0,0,0,0,0,0,0,0,0,0,0,0,0,0,0,0,0,0,0,0,0,0,
0,0,0,0,0,0,0,0,0,0,0,0,0,0,0,0,0,0,0,0,0,0,0,0,0,0,0,0,0,0,0,0,0,0,0,0,0,0,0,0,0,0,0,0,0,0,0,0,0,0,0,0,0,0,0,0,0,0,0,0,0,0,0,0,0,0,0,0,0,0,0,0,0,0,0,0,0,0,0,0,0,0,0,0,0,0,0,0,0,0,0,0,0,0,0,0,0,0,0,0,0,
0,0,0,0,0,0,0,0,0,0,0,0,0,0,0,0,0,0,0,0,0,0,0,0,0,0,0,0,0,0,0,0,0,0,0,0,0,0,0,0,0,0,0,0,0,0,0,0,0,0,0,0,0,0,0,0,0,0,0,0,0,0,0,0,0,0,0,0,0,0,0,0,0,0,0,0,0,0,0,0,0,0,0,0,0,0,0,0,0,0,0,0,0,0,0,0,0,0,0,0,0,
0,0,0,0,0,0,0,0,0,0,0,0,0,0,0,0,0,0,0,0,0,0,0,0,0,0,0,0,0,0,0,0,0,0,0,0,0,0,0,0,0,0,0,0,0,0,0,0,0,0,0,0,0,0,0,0,0,0,0,0,0,0,0,0,0,0,0,0,0,0,0,0,0,0,0,0,0,0,0,0,0,0,0,0,0,0,0,0,0,0,0,0,0,0,0,0,0,0,0,0,0,
0,0,0,0,0,0,0,0,0,0,0,0,0,0,0,0,0,0,0,0,0,0,0,0,0,0,0,0,0,0,0,0,0,0,0,0,0,0,0,0,0,0,0,0,0,0,0,0,0,0,0,0,0,0,0,0,0,0,0,0,0,0,0,0,0,0,0,0,0,0,0,0,0,0,0,0,0,0,0,0,0,0,0,0,0,0,0,0,0,0,0,0,0,0,0,0,0,0,0,0,0,
0,0,0,0,0,0,0,0,0,0,0,0,0,0,0,0,0,0,0,0,0,0,0,0,0,0,0,0,0,0,0,0,0,0,0,0,0,0,0,0,0,0,0,0,0,0,0,0,0,0,0,0,0,0,0,0,0,0,0,0,0,0,0,0,0,0,0,0,0,0,0,0,0,0,0,0,0,0,0,0,0,0,0,0,0,0,0,0,0,0,0,0,0,0,0,0,0,0,0,0,0,
0,0,0,0,0,0,0,0,0,0,0,0,0,0,0,0,0,0,0,0,0,0,0,0,0,0,0,0,0,0,0,0,0,0,0,0,0,0,0,0,0,0,0,0,0,0,0,0,0,0,0,0,0,0,0,0,0,0,0,0,0,0,0,0,0,0,0,0,0,0,0,0,0,0,0,0,0,0,0,0,0,0,0,0,0,0,0,0,0,0,0,0,0,0,0,0,0,0,0,0,0,
0,0,0,0,0,0,0,0,0,0,0,0,0,0,0,0,0,0,0,0,0,0,0,0,0,0,0,0,0,0,0,0,0,0,0,0,0,0,0,0,0,0,0,0,0,0,0,0,0,0,0,0,0,0,0,0,0,0,0,0,0,0,0,0,0,0,0,0,0,0,0,0,0,0,0,0,0,0,0,0,0,0,0,0,0,0,0,0,0,0,0,0,0,0,0,0,0,0,0,0,0,
0,0,0,0,0,0,0,0,0,0,0,0,0,0,0,0,0,0,0,0,0,0,0,0,0,0,0,0,0,0,0,0,0,0,0,0,0,0,0,0,0,0,0,0,0,0,0,0,0,0,0,0,0,0,0,0,0,0,0,0,0,0,0,0,0,0,0,0,0,0,0,0,0,0,0,0,0,0,0,0,0,0,0,0,0,0,0,0,0,0,0,0,0,0,0,0,0,0,0,0,0,
0,0,0,0,0,0,0,0,0,0,0,0,0,0,0,0,0,0,0,0,0,0,0,0,0,0,0,0,0,0,0,0,0,0,0,0,0,0,0,0,0,0,0,0,0,0,0,0,0,0,0,0,0,0,0,0,0,0,0,0,0,0,0,0,0,0,0,0,0,0,0,0,0,0,0,0,0,0,0,0,0,0,0,0,0,0,0,0,0,0,0,0,0,0,0,0,0,0,0,0,0,
0,0,0,0,0,0,0,0,0,0,0,0,0,0,0,0,0,0,0,0,0,0,0,0,0,0,0,0,0,0,0,0,0,0,0,0,0,0,0,0,0,0,0,0,0,0,0,0,0,0,0,0,0,0,0,0,0,0,0,0,0,0,0,0,0,0,0,0,0,0,0,0,0,0,0,0,0,0,0,0,0,0,0,0,0,0,0,0,0,0,0,0,0,0,0,0,0,0,0,0,0,
0,0,0,0,0,0,0,0,0,0,0,0,0,0,0,0,0,0,0,0,0,0,0,0,0,0,0,0,0,0,0,0,0,0,0,0,0,0,0,0,0,0,0,0,0,0,0,0,0,0,0,0,0,0,0,0,0,0,0,0,0,0,0,0,0,0,0,0,0,0,0,0,0,0,0,0,0,0,0,0,0,0,0,0,0,0,0,0,0,0,0,0,0,0,0,0,0,0,0,0,0,
0,0,0,0,0,0,0,0,0,0,0,0,0,0,0,0,0,0,0,0,0,0,0,0,0,0,0,0,0,0,0,0,0,0,0,0,0,0,0,0,0,0,0,0,0,0,0,0,0,0,0,0,0,0,0,0,0,0,0,0,0,0,0,0,0,0,0,0,0,0,0,0,0,0,0,0,0,0,0,0,0,0,0,0,0,0,0,0,0,0,0,0,0,0,0,0,0,0,0,0,0,
0,0,0,0,0,0,0,0,0,0,0,0,0,0,0,0,0,0,0,0,0,0,0,0,0,0,0,0,0,0,0,0,0,0,0,0,0,0,0,0,0,0,0,0,0,0,0,0,0,0,0,0,0,0,0,0,0,0,0,0,0,0,0,0,0,0,0,0,0,0,0,0,0,0,0,0,0,0,0,0,0,0,0,0,0,0,0,0,0,0,0,0,0,0,0,0,0,0,0,0,0,
0,0,0,0,0,0,0,0,0,0,0,0,0,0,0,0,0,0,0,0,0,0,0,0,0,0,0,0,0,0,0,0,0,0,0,0,0,0,0,0,0,0,0,0,0,0,0,0,0,0,0,0,0,0,0,0,0,0,0,0,0,0,0,0,0,0,0,0,0,0,0,0,0,0,0,0,0,0,0,0,0,0,0,0,0,0,0,0,0,0,0,0,0,0,0,0,0,0,0,0,0,
0,0,0,0,0,0,0,0,0,0,0,0,0,0,0,0,0,0,0,0,0,0,0,0,0,0,0,0,0,0,0,0,0,0,0,0,0,0,0,0,0,0,0,0,0,0,0,0,0,0,0,0,0,0,0,0,0,0,0,0,0,0,0,0,0,0,0,0,0,0,0,0,0,0,0,0,0,0,0,0,0,0,0,0,0,0,0,0,0,0,0,0,0,0,0,0,0,0,0,0,0,
0,0,0,0,0,0,0,0,0,0,0,0,0,0,0,0,0,0,0,0,0,0,0,0,0,0,0,0,0,0,0,0,0,0,0,0,0,0,0,0,0,0,0,0,0,0,0,0,0,0,0,0,0,0,0,0,0,0,0,0,0,0,0,0,0,0,0,0,0,0,0,0,0,0,0,0,0,0,0,0,0,0,0,0,0,0,0,0,0,0,0,0,0,0,0,0,0,0,0,0,0,
0,0,0,0,0,0,0,0,0,0,0,0,0,0,0,0,0,0,0,0,0,0,0,0,0,0,0,0,0,0,0,0,0,0,0,0,0,0,0,0,0,0,0,0,0,0,0,0,0,0,0,0,0,0,0,0,0,0,0,0,0,0,0,0,0,0,0,0,0,0,0,0,0,0,0,0,0,0,0,0,0,0,0,0,0,0,0,0,0,0,0,0,0,0,0,0,0,0,0,0,0,
0,0,0,0,0,0,0,0,0,0,0,0,0,0,0,0,0,0,0,0,0,0,0,0,0,0,0,0,0,0,0,0,0,0,0,0,0,0,0,0,0,0,0,0,0,0,0,0,0,0,0,0,0,0,0,0,0,0,0,0,0,0,0,0,0,0,0,0,0,0,0,0,0,0,0,0,0,0,0,0,0,0,0,0,0,0,0,0,0,0,0,0,0,0,0,0,0,0,0,0,0,
0,0,0,0,0,0,0,0,0,0,0,0,0,0,0,0,0,0,0,0,0,0,0,0,0,0,0,0,0,0,0,0,0,0,0,0,0,0,0,0,0,0,0,0,0,0,0,0,0,0,0,0,0,0,0,0,0,0,0,0,0,0,0,0,0,0,0,0,0,0,0,0,0,0,0,0,0,0,0,0,0,0,0,0,0,0,0,0,0,0,0,0,0,0,0,0,0,0,0,0,0,
0,0,0,0,0,0,0,0,0,0,0,0,0,0,0,0,0,0,0,0,0,0,0,0,0,0,0,0,0,0,0,0,0,0,0,0,0,0,0,0,0,0,0,0,0,0,0,0,0,0,0,0,0,0,0,0,0,0,0,0,0,0,0,0,0,0,0,0,0,0,0,0,0,0,0,0,0,0,0,0,0,0,0,0,0,0,0,0,0,0,0,0,0,0,0,0,0,0,0,0,0,
0,0,0,0,0,0,0,0,0,0,0,0,0,0,0,0,0,0,0,0,0,0,0,0,0,0,0,0,0,0,0,0,0,0,0,0,0,0,0,0,0,0,0,0,0,0,0,0,0,0,0,0,0,0,0,0,0,0,0,0,0,0,0,0,0,0,0,0,0,0,0,0,0,0,0,0,0,0,0,0,0,0,0,0,0,0,0,0,0,0,0,0,0,0,0,0,0,0,0,0,0,
0,0,0,0,0,0,0,0,0,0,0,0,0,0,0,0,0,0,0,0,0,0,0,0,0,0,0,0,0,0,0,0,0,0,0,0,0,0,0,0,0,0,0,0,0,0,0,0,0,0,0,0,0,0,0,0,0,0,0,0,0,0,0,0,0,0,0,0,0,0,0,0,0,0,0,0,0,0,0,0,0,0,0,0,0,0,0,0,0,0,0,0,0,0,0,0,0,0,0,0,0,
0,0,0,0,0,0,0,0,0,0,0,0,0,0,0,0,0,0,0,0,0,0,0,0,0,0,0,0,0,0,0,0,0,0,0,0,0,0,0,0,0,0,0,0,0,0,0,0,0,0,0,0,0,0,0,0,0,0,0,0,0,0,0,0,0,0,0,0,0,0,0,0,0,0,0,0,0,0,0,0,0,0,0,0,0,0,0,0,0,0,0,0,0,0,0,0,0,0,0,0,0,
0,0,0,0,0,0,0,0,0,0,0,0,0,0,0,0,0,0,0,0,0,0,0,0,0,0,0,0,0,0,0,0,0,0,0,0,0,0,0,0,0,0,0,0,0,0,0,0,0,0,0,0,0,0,0,0,0,0,0,0,0,0,0,0,0,0,0,0,0,0,0,0,0,0,0,0,0,0,0,0,0,0,0,0,0,0,0,0,0,0,0,0,0,0,0,0,0,0,0,0,0,
0,0,0,0,0,0,0,0,0,0,0,0,0,0,0,0,0,0,0,0,0,0,0,0,0,0,0,0,0,0,0,0,0,0,0,0,0,0,0,0,0,0,0,0,0,0,0,0,0,0,0,0,0,0,0,0,0,0,0,0,0,0,0,0,0,0,0,0,0,0,0,0,0,0,0,0,0,0,0,0,0,0,0,0,0,0,0,0,0,0,0,0,0,0,0,0,0,0,0,0,0,
0,0,0,0,0,0,0,0,0,0,0,0,0,0,0,0,0,0,0,0,0,0,0,0,0,0,0,0,0,0,0,0,0,0,0,0,0,0,0,0,0,0,0,0,0,0,0,0,0,0,0,0,0,0,0,0,0,0,0,0,0,0,0,0,0,0,0,0,0,0,0,0,0,0,0,0,0,0,0,0,0,0,0,0,0,0,0,0,0,0,0,0,0,0,0,0,0,0,0,0,0,
0,0,0,0,0,0,0,0,0,0,0,0,0,0,0,0,0,0,0,0,0,0,0,0,0,0,0,0,0,0,0,0,0,0,0,0,0,0,0,0,0,0,0,0,0,0,0,0,0,0,0,0,0,0,0,0,0,0,0,0,0,0,0,0,0,0,0,0,0,0,0,0,0,0,0,0,0,0,0,0,0,0,0,0,0,0,0,0,0,0,0,0,0,0,0,0,0,0,0,0,0,
0,0,0,0,0,0,0,0,0,0,0,0,0,0,0,0,0,0,0,0,0,0,0,0,0,0,0,0,0,0,0,0,0,0,0,0,0,0,0,0,0,0,0,0,0,0,0,0,0,0,0,0,0,0,0,0,0,0,0,0,0,0,0,0,0,0,0,0,0,0,0,0,0,0,0,0,0,0,0,0,0,0,0,0,0,0,0,0,0,0,0,0,0,0,0,0,0,0,0,0,0,
0,0,0,0,0,0,0,0,0,0,0,0,0,0,0,0,0,0,0,0,0,0,0,0,0,0,0,0,0,0,0,0,0,0,0,0,0,0,0,0,0,0,0,0,0,0,0,0,0,0,0,0,0,0,0,0,0,0,0,0,0,0,0,0,0,0,0,0,0,0,0,0,0,0,0,0,0,0,0,0,0,0,0,0,0,0,0,0,0,0,0,0,0,0,0,0,0,0,0,0,0,
0,0,0,0,0,0,0,0,0,0,0,0,0,0,0,0,0,0,0,0,0,0,0,0,0,0,0,0,0,0,0,0,0,0,0,0,0,0,0,0,0,0,0,0,0,0,0,0,0,0,0,0,0,0,0,0,0,0,0,0,0,0,0,0,0,0,0,0,0,0,0,0,0,0,0,0,0,0,0,0,0,0,0,0,0,0,0,0,0,0,0,0,0,0,0,0,0,0,0,0,0,
0,0,0,0,0,0,0,0,0,0,0,0,0,0,0,0,0,0,0,0,0,0,0,0,0,0,0,0,0,0,0,0,0,0,0,0,0,0,0,0,0,0,0,0,0,0,0,0,0,0,0,0,0,0,0,0,0,0,0,0,0,0,0,0,0,0,0,0,0,0,0,0,0,0,0,0,0,0,0,0,0,0,0,0,0,0,0,0,0,0,0,0,0,0,0,0,0,0,0,0,0,
0,0,0,0,0,0,0,0,0,0,0,0,0,0,0,0,0,0,0,0,0,0,0,0,0,0,0,0,0,0,0,0,0,0,0,0,0,0,0,0,0,0,0,0,0,0,0,0,0,0,0,0,0,0,0,0,0,0,0,0,0,0,0,0,0,0,0,0,0,0,0,0,0,0,0,0,0,0,0,0,0,0,0,0,0,0,0,0,0,0,0,0,0,0,0,0,0,0,0,0,0,
0,0,0,0,0,0,0,0,0,0,0,0,0,0,0,0,0,0,0,0,0,0,0,0,0,0,0,0,0,0,0,0,0,0,0,0,0,0,0,0,0,0,0,0,0,0,0,0,0,0,0,0,0,0,0,0,0,0,0,0,0,0,0,0,0,0,0,0,0,0,0,0,0,0,0,0,0,0,0,0,0,0,0,0,0,0,0,0,0,0,0,0,0,0,0,0,0,0,0,0,0,
0,0,0,0,0,0,0,0,0,0,0,0,0,0,0,0,0,0,0,0,0,0,0,0,0,0,0,0,0,0,0,0,0,0,0,0,0,0,0,0,0,0,0,0,0,0,0,0,0,0,0,0,0,0,0,0,0,0,0,0,0,0,0,0,0,0,0,0,0,0,0,0,0,0,0,0,0,0,0,0,0,0,0,0,0,0,0,0,0,0,0,0,0,0,0,0,0,0,0,0,0,
0,0,0,0,0,0,0,0,0,0,0,0,0,0,0,0,0,0,0,0,0,0,0,0,0,0,0,0,0,0,0,0,0,0,0,0,0,0,0,0,0,0,0,0,0,0,0,0,0,0,0,0,0,0,0,0,0,0,0,0,0,0,0,0,0,0,0,0,0,0,0,0,0,0,0,0,0,0,0,0,0,0,0,0,0,0,0,0,0,0,0,0,0,0,0,0,0,0,0,0,0,
0,0,0,0,0,0,0,0,0,0,0,0,0,0,0,0,0,0,0,0,0,0,0,0,0,0,0,0,0,0,0,0,0,0,0,0,0,0,0,0,0,0,0,0,0,0,0,0,0,0,0,0,0,0,0,0,0,0,0,0,0,0,0,0,0,0,0,0,0,0,0,0,0,0,0,0,0,0,0,0,0,0,0,0,0,0,0,0,0,0,0,0,0,0,0,0,0,0,0,0,0,
0,0,0,0,0,0,0,0,0,0,0,0,0,0,0,0,0,0,0,0,0,0,0,0,0,0,0,0,0,0,0,0,0,0,0,0,0,0,0,0,0,0,0,0,0,0,0,0,0,0,0,0,0,0,0,0,0,0,0,0,0,0,0,0,0,0,0,0,0,0,0,0,0,0,0,0,0,0,0,0,0,0,0,0,0,0,0,0,0,0,0,0,0,0,0,0,0,0,0,0,0,
0,0,0,0,0,0,0,0,0,0,0,0,0,0,0,0,0,0,0,0,0,0,0,0,0,0,0,0,0,0,0,0,0,0,0,0,0,0,0,0,0,0,0,0,0,0,0,0,0,0,0,0,0,0,0,0,0,0,0,0,0,0,0,0,0,0,0,0,0,0,0,0,0,0,0,0,0,0,0,0,0,0,0,0,0,0,0,0,0,0,0,0,0,0,0,0,0,0,0,0,0,
0,0,0,0,0,0,0,0,0,0,0,0,0,0,0,0,0,0,0,0,0,0,0,0,0,0,0,0,0,0,0,0,0,0,0,0,0,0,0,0,0,0,0,0,0,0,0,0,0,0,0,0,0,0,0,0,0,0,0,0,0,0,0,0,0,0,0,0,0,0,0,0,0,0,0,0,0,0,0,0,0,0,0,0,0,0,0,0,0,0,0,0,0,0,0,0,0,0,0,0,0,
0,0,0,0,0,0,0,0,0,0,0,0,0,0,0,0,0,0,0,0,0,0,0,0,0,0,0,0,0,0,0,0,0,0,0,0,0,0,0,0,0,0,0,0,0,0,0,0,0,0,0,0,0,0,0,0,0,0,0,0,0,0,0,0,0,0,0,0,0,0,0,0,0,0,0,0,0,0,0,0,0,0,0,0,0,0,0,0,0,0,0,0,0,0,0,0,0,0,0,0,0,
0,0,0,0,0,0,0,0,0,0,0,0,0,0,0,0,0,0,0,0,0,0,0,0,0,0,0,0,0,0,0,0,0,0,0,0,0,0,0,0,0,0,0,0,0,0,0,0,0,0,0,0,0,0,0,0,0,0,0,0,0,0,0,0,0,0,0,0,0,0,0,0,0,0,0,0,0,0,0,0,0,0,0,0,0,0,0,0,0,0,0,0,0,0,0,0,0,0,0,0,0,
0,0,0,0,0,0,0,0,0,0,0,0,0,0,0,0,0,0,0,0,0,0,0,0,0,0,0,0,0,0,0,0,0,0,0,0,0,0,0,0,0,0,0,0,0,0,0,0,0,0,0,0,0,0,0,0,0,0,0,0,0,0,0,0,0,0,0,0,0,0,0,0,0,0,0,0,0,0,0,0,0,0,0,0,0,0,0,0,0,0,0,0,0,0,0,0,0,0,0,0,0,
0,0,0,0,0,0,0,0,0,0,0,0,0,0,0,0,0,0,0,0,0,0,0,0,0,0,0,0,0,0,0,0,0,0,0,0,0,0,0,0,0,0,0,0,0,0,0,0,0,0,0,0,0,0,0,0,0,0,0,0,0,0,0,0,0,0,0,0,0,0,0,0,0,0,0,0,0,0,0,0,0,0,0,0,0,0,0,0,0,0,0,0,0,0,0,0,0,0,0,0,0,
0,0,0,0,0,0,0,0,0,0,0,0,0,0,0,0,0,0,0,0,0,0,0,0,0,0,0,0,0,0,0,0,0,0,0,0,0,0,0,0,0,0,0,0,0,0,0,0,0,0,0,0,0,0,0,0,0,0,0,0,0,0,0,0,0,0,0,0,0,0,0,0,0,0,0,0,0,0,0,0,0,0,0,0,0,0,0,0,0,0,0,0,0,0,0,0,0,0,0,0,0,
0,0,0,0,0,0,0,0,0,0,0,0,0,0,0,0,0,0,0,0,0,0,0,0,0,0,0,0,0,0,0,0,0,0,0,0,0,0,0,0,0,0,0,0,0,0,0,0,0,0,0,0,0,0,0,0,0,0,0,0,0,0,0,0,0,0,0,0,0,0,0,0,0,0,0,0,0,0,0,0,0,0,0,0,0,0,0,0,0,0,0,0,0,0,0,0,0,0,0,0,0,
0,0,0,0,0,0,0,0,0,0,0,0,0,0,0,0,0,0,0,0,0,0,0,0,0,0,0,0,0,0,0,0,0,0,0,0,0,0,0,0,0,0,0,0,0,0,0,0,0,0,0,0,0,0,0,0,0,0,0,0,0,0,0,0,0,0,0,0,0,0,0,0,0,0,0,0,0,0,0,0,0,0,0,0,0,0,0,0,0,0,0,0,0,0,0,0,0,0,0,0,0,
0,0,0,0,0,0,0,0,0,0,0,0,0,0,0,0,0,0,0,0,0,0,0,0,0,0,0,0,0,0,0,0,0,0,0,0,0,0,0,0,0,0,0,0,0,0,0,0,0,0,0,0,0,0,0,0,0,0,0,0,0,0,0,0,0,0,0,0,0,0,0,0,0,0,0,0,0,0,0,0,0,0,0,0,0,0,0,0,0,0,0,0,0,0,0,0,0,0,0,0,0,
0,0,0,0,0,0,0,0,0,0,0,0,0,0,0,0,0,0,0,0,0,0,0,0,0,0,0,0,0,0,0,0,0,0,0,0,0,0,0,0,0,0,0,0,0,0,0,0,0,0,0,0,0,0,0,0,0,0,0,0,0,0,0,0,0,0,0,0,0,0,0,0,0,0,0,0,0,0,0,0,0,0,0,0,0,0,0,0,0,0,0,0,0,0,0,0,0,0,0,0,0,
0,0,0,0,0,0,0,0,0,0,0,0,0,0,0,0,0,0,0,0,0,0,0,0,0,0,0,0,0,0,0,0,0,0,0,0,0,0,0,0,0,0,0,0,0,0,0,0,0,0,0,0,0,0,0,0,0,0,0,0,0,0,0,0,0,0,0,0,0,0,0,0,0,0,0,0,0,0,0,0,0,0,0,0,0,0,0,0,0,0,0,0,0,0,0,0,0,0,0,0,0,
0,0,0,0,0,0,0,0,0,0,0,0,0,0,0,0,0,0,0,0,0,0,0,0,0,0,0,0,0,0,0,0,0,0,0,0,0,0,0,0,0,0,0,0,0,0,0,0,0,0,0,0,0,0,0,0,0,0,0,0,0,0,0,0,0,0,0,0,0,0,0,0,0,0,0,0,0,0,0,0,0,0,0,0,0,0,0,0,0,0,0,0,0,0,0,0,0,0,0,0,0,
0,0,0,0,0,0,0,0,0,0,0,0,0,0,0,0,0,0,0,0,0,0,0,0,0,0,0,0,0,0,0,0,0,0,0,0,0,0,0,0,0,0,0,0,0,0,0,0,0,0,0,0,0,0,0,0,0,0,0,0,0,0,0,0,0,0,0,0,0,0,0,0,0,0,0,0,0,0,0,0,0,0,0,0,0,0,0,0,0,0,0,0,0,0,0,0,0,0,0,0,0,
0,0,0,0,0,0,0,0,0,0,0,0,0,0,0,0,0,0,0,0,0,0,0,0,0,0,0,0,0,0,0,0,0,0,0,0,0,0,0,0,0,0,0,0,0,0,0,0,0,0,0,0,0,0,0,0,0,0,0,0,0,0,0,0,0,0,0,0,0,0,0,0,0,0,0,0,0,0,0,0,0,0,0,0,0,0,0,0,0,0,0,0,0,0,0,0,0,0,0,0,0,
0,0,0,0,0,0,0,0,0,0,0,0,0,0,0,0,0,0,0,0,0,0,0,0,0,0,0,0,0,0,0,0,0,0,0,0,0,0,0,0,0,0,0,0,0,0,0,0,0,0,0,0,0,0,0,0,0,0,0,0,0,0,0,0,0,0,0,0,0,0,0,0,0,0,0,0,0,0,0,0,0,0,0,0,0,0,0,0,0,0,0,0,0,0,0,0,0,0,0,0,0,
0,0,0,0,0,0,0,0,0,0,0,0,0,0,0,0,0,0,0,0,0,0,0,0,0,0,0,0,0,0,0,0,0,0,0,0,0,0,0,0,0,0,0,0,0,0,0,0,0,0,0,0,0,0,0,0,0,0,0,0,0,0,0,0,0,0,0,0,0,0,0,0,0,0,0,0,0,0,0,0,0,0,0,0,0,0,0,0,0,0,0,0,0,0,0,0,0,0,0,0,0,
0,0,0,0,0,0,0,0,0,0,0,0,0,0,0,0,0,0,0,0,0,0,0,0,0,0,0,0,0,0,0,0,0,0,0,0,0,0,0,0,0,0,0,0,0,0,0,0,0,0,0,0,0,0,0,0,0,0,0,0,0,0,0,0,0,0,0,0,0,0,0,0,0,0,0,0,0,0,0,0,0,0,0,0,0,0,0,0,0,0,0,0,0,0,0,0,0,0,0,0,0,
0,0,0,0,0,0,0,0,0,0,0,0,0,0,0,0,0,0,0,0,0,0,0,0,0,0,0,0,0,0,0,0,0,0,0,0,0,0,0,0,0,0,0,0,0,0,0,0,0,0,0,0,0,0,0,0,0,0,0,0,0,0,0,0,0,0,0,0,0,0,0,0,0,0,0,0,0,0,0,0,0,0,0,0,0,0,0,0,0,0,0,0,0,0,0,0,0,0,0,0,0,
0,0,0,0,0,0,0,0,0,0,0,0,0,0,0,0,0,0,0,0,0,0,0,0,0,0,0,0,0,0,0,0,0,0,0,0,0,0,0,0,0,0,0,0,0,0,0,0,0,0,0,0,0,0,0,0,0,0,0,0,0,0,0,0,0,0,0,0,0,0,0,0,0,0,0,0,0,0,0,0,0,0,0,0,0,0,0,0,0,0,0,0,0,0,0,0,0,0,0,0,0,
0,0,0,0,0,0,0,0,0,0,0,0,0,0,0,0,0,0,0,0,0,0,0,0,0,0,0,0,0,0,0,0,0,0,0,0,0,0,0,0,0,0,0,0,0,0,0,0,0,0,0,0,0,0,0,0,0,0,0,0,0,0,0,0,0,0,0,0,0,0,0,0,0,0,0,0,0,0,0,0,0,0,0,0,0,0,0,0,0,0,0,0,0,0,0,0,0,0,0,0,0,
0,0,0,0,0,0,0,0,0,0,0,0,0,0,0,0,0,0,0,0,0,0,0,0,0,0,0,0,0,0,0,0,0,0,0,0,0,0,0,0,0,0,0,0,0,0,0,0,0,0,0,0,0,0,0,0,0,0,0,0,0,0,0,0,0,0,0,0,0,0,0,0,0,0,0,0,0,0,0,0,0,0,0,0,0,0,0,0,0,0,0,0,0,0,0,0,0,0,0,0,0,
0,0,0,0,0,0,0,0,0,0,0,0,0,0,0,0,0,0,0,0,0,0,0,0,0,0,0,0,0,0,0,0,0,0,0,0,0,0,0,0,0,0,0,0,0,0,0,0,0,0,0,0,0,0,0,0,0,0,0,0,0,0,0,0,0,0,0,0,0,0,0,0,0,0,0,0,0,0,0,0,0,0,0,0,0,0,0,0,0,0,0,0,0,0,0,0,0,0,0,0,0,
0,0,0,0,0,0,0,0,0,0,0,0,0,0,0,0,0,0,0,0,0,0,0,0,0,0,0,0,0,0,0,0,0,0,0,0,0,0,0,0,0,0,0,0,0,0,0,0,0,0,0,0,0,0,0,0,0,0,0,0,0,0,0,0,0,0,0,0,0,0,0,0,0,0,0,0,0,0,0,0,0,0,0,0,0,0,0,0,0,0,0,0,0,0,0,0,0,0,0,0,0,
0,0,0,0,0,0,0,0,0,0,0,0,0,0,0,0,0,0,0,0,0,0,0,0,0,0,0,0,0,0,0,0,0,0,0,0,0,0,0,0,0,0,0,0,0,0,0,0,0,0,0,0,0,0,0,0,0,0,0,0,0,0,0,0,0,0,0,0,0,0,0,0,0,0,0,0,0,0,0,0,0,0,0,0,0,0,0,0,0,0,0,0,0,0,0,0,0,0,0,0,0,
0,0,0,0,0,0,0,0,0,0,0,0,0,0,0,0,0,0,0,0,0,0,0,0,0,0,0,0,0,0,0,0,0,0,0,0,0,0,0,0,0,0,0,0,0,0,0,0,0,0,0,0,0,0,0,0,0,0,0,0,0,0,0,0,0,0,0,0,0,0,0,0,0,0,0,0,0,0,0,0,0,0,0,0,0,0,0,0,0,0,0,0,0,0,0,0,0,0,0,0,0,
0,0,0,0,0,0,0,0,0,0,0,0,0,0,0,0,0,0,0,0,0,0,0,0,0,0,0,0,0,0,0,0,0,0,0,0,0,0,0,0,0,0,0,0,0,0,0,0,0,0,0,0,0,0,0,0,0,0,0,0,0,0,0,0,0,0,0,0,0,0,0,0,0,0,0,0,0,0,0,0,0,0,0,0,0,0,0,0,0,0,0,0,0,0,0,0,0,0,0,0,0,
0,0,0,0,0,0,0,0,0,0,0,0,0,0,0,0,0,0,0,0,0,0,0,0,0,0,0,0,0,0,0,0,0,0,0,0,0,0,0,0,0,0,0,0,0,0,0,0,0,0,0,0,0,0,0,0,0,0,0,0,0,0,0,0,0,0,0,0,0,0,0,0,0,0,0,0,0,0,0,0,0,0,0,0,0,0,0,0,0,0,0,0,0,0,0,0,0,0,0,0,0,
0,0,0,0,0,0,0,0,0,0,0,0,0,0,0,0,0,0,0,0,0,0,0,0,0,0,0,0,0,0,0,0,0,0,0,0,0,0,0,0,0,0,0,0,0,0,0,0,0,0,0,0,0,0,0,0,0,0,0,0,0,0,0,0,0,0,0,0,0,0,0,0,0,0,0,0,0,0,0,0,0,0,0,0,0,0,0,0,0,0,0,0,0,0,0,0,0,0,0,0,0,
0,0,0,0,0,0,0,0,0,0,0,0,0,0,0,0,0,0,0,0,0,0,0,0,0,0,0,0,0,0,0,0,0,0,0,0,0,0,0,0,0,0,0,0,0,0,0,0,0,0,0,0,0,0,0,0,0,0,0,0,0,0,0,0,0,0,0,0,0,0,0,0,0,0,0,0,0,0,0,0,0,0,0,0,0,0,0,0,0,0,0,0,0,0,0,0,0,0,0,0,0,
0,0,0,0,0,0,0,0,0,0,0,0,0,0,0,0,0,0,0,0,0,0,0,0,0,0,0,0,0,0,0,0,0,0,0,0,0,0,0,0,0,0,0,0,0,0,0,0,0,0,0,0,0,0,0,0,0,0,0,0,0,0,0,0,0,0,0,0,0,0,0,0,0,0,0,0,0,0,0,0,0,0,0,0,0,0,0,0,0,0,0,0,0,0,0,0,0,0,0,0,0,
0,0,0,0,0,0,0,0,0,0,0,0,0,0,0,0,0,0,0,0,0,0,0,0,0,0,0,0,0,0,0,0,0,0,0,0,0,0,0,0,0,0,0,0,0,0,0,0,0,0,0,0,0,0,0,0,0,0,0,0,0,0,0,0,0,0,0,0,0,0,0,0,0,0,0,0,0,0,0,0,0,0,0,0,0,0,0,0,0,0,0,0,0,0,0,0,0,0,0,0,0,
0,0,0,0,0,0,0,0,0,0,0,0,0,0,0,0,0,0,0,0,0,0,0,0,0,0,0,0,0,0,0,0,0,0,0,0,0,0,0,0,0,0,0,0,0,0,0,0,0,0,0,0,0,0,0,0,0,0,0,0,0,0,0,0,0,0,0,0,0,0,0,0,0,0,0,0,0,0,0,0,0,0,0,0,0,0,0,0,0,0,0,0,0,0,0,0,0,0,0,0,0,
0,0,0,0,0,0,0,0,0,0,0,0,0,0,0,0,0,0,0,0,0,0,0,0,0,0,0,0,0,0,0,0,0,0,0,0,0,0,0,0,0,0,0,0,0,0,0,0,0,0,0,0,0,0,0,0,0,0,0,0,0,0,0,0,0,0,0,0,0,0,0,0,0,0,0,0,0,0,0,0,0,0,0,0,0,0,0,0,0,0,0,0,0,0,0,0,0,0,0,0,0,
0,0,0,0,0,0,0,0,0,0,0,0,0,0,0,0,0,0,0,0,0,0,0,0,0,0,0,0,0,0,0,0,0,0,0,0,0,0,0,0,0,0,0,0,0,0,0,0,0,0,0,0,0,0,0,0,0,0,0,0,0,0,0,0,0,0,0,0,0,0,0,0,0,0,0,0,0,0,0,0,0,0,0,0,0,0,0,0,0,0,0,0,0,0,0,0,0,0,0,0,0,
0,0,0,0,0,0,0,0,0,0,0,0,0,0,0,0,0,0,0,0,0,0,0,0,0,0,0,0,0,0,0,0,0,0,0,0,0,0,0,0,0,0,0,0,0,0,0,0,0,0,0,0,0,0,0,0,0,0,0,0,0,0,0,0,0,0,0,0,0,0,0,0,0,0,0,0,0,0,0,0,0,0,0,0,0,0,0,0,0,0,0,0,0,0,0,0,0,0,0,0,0,
0,0,0,0,0,0,0,0,0,0,0,0,0,0,0,0,0,0,0,0,0,0,0,0,0,0,0,0,0,0,0,0,0,0,0,0,0,0,0,0,0,0,0,0,0,0,0,0,0,0,0,0,0,0,0,0,0,0,0,0,0,0,0,0,0,0,0,0,0,0,0,0,0,0,0,0,0,0,0,0,0,0,0,0,0,0,0,0,0,0,0,0,0,0,0,0,0,0,0,0,0,
0,0,0,0,0,0,0,0,0,0,0,0,0,0,0,0,0,0,0,0,0,0,0,0,0,0,0,0,0,0,0,0,0,0,0,0,0,0,0,0,0,0,0,0,0,0,0,0,0,0,0,0,0,0,0,0,0,0,0,0,0,0,0,0,0,0,0,0,0,0,0,0,0,0,0,0,0,0,0,0,0,0,0,0,0,0,0,0,0,0,0,0,0,0,0,0,0,0,0,0,0,
0,0,0,0,0,0,0,0,0,0,0,0,0,0,0,0,0,0,0,0,0,0,0,0,0,0,0,0,0,0,0,0,0,0,0,0,0,0,0,0,0,0,0,0,0,0,0,0,0,0,0,0,0,0,0,0,0,0,0,0,0,0,0,0,0,0,0,0,0,0,0,0,0,0,0,0,0,0,0,0,0,0,0,0,0,0,0,0,0,0,0,0,0,0,0,0,0,0,0,0,0,
0,0,0,0,0,0,0,0,0,0,0,0,0,0,0,0,0,0,0,0,0,0,0,0,0,0,0,0,0,0,0,0,0,0,0,0,0,0,0,0,0,0,0,0,0,0,0,0,0,0,0,0,0,0,0,0,0,0,0,0,0,0,0,0,0,0,0,0,0,0,0,0,0,0,0,0,0,0,0,0,0,0,0,0,0,0,0,0,0,0,0,0,0,0,0,0,0,0,0,0,0,
0,0,0,0,0,0,0,0,0,0,0,0,0,0,0,0,0,0,0,0,0,0,0,0,0,0,0,0,0,0,0,0,0,0,0,0,0,0,0,0,0,0,0,0,0,0,0,0,0,0,0,0,0,0,0,0,0,0,0,0,0,0,0,0,0,0,0,0,0,0,0,0,0,0,0,0,0,0,0,0,0,0,0,0,0,0,0,0,0,0,0,0,0,0,0,0,0,0,0,0,0,
0,0,0,0,0,0,0,0,0,0,0,0,0,0,0,0,0,0,0,0,0,0,0,0,0,0,0,0,0,0,0,0,0,0,0,0,0,0,0,0,0,0,0,0,0,0,0,0,0,0,0,0,0,0,0,0,0,0,0,0,0,0,0,0,0,0,0,0,0,0,0,0,0,0,0,0,0,0,0,0,0,0,0,0,0,0,0,0,0,0,0,0,0,0,0,0,0,0,0,0,0,
0,0,0,0,0,0,0,0,0,0,0,0,0,0,0,0,0,0,0,0,0,0,0,0,0,0,0,0,0,0,0,0,0,0,0,0,0,0,0,0,0,0,0,0,0,0,0,0,0,0,0,0,0,0,0,0,0,0,0,0,0,0,0,0,0,0,0,0,0,0,0,0,0,0,0,0,0,0,0,0,0,0,0,0,0,0,0,0,0,0,0,0,0,0,0,0,0,0,0,0,0,
0,0,0,0,0,0,0,0,0,0,0,0,0,0,0,0,0,0,0,0,0,0,0,0,0,0,0,0,0,0,0,0,0,0,0,0,0,0,0,0,0,0,0,0,0,0,0,0,0,0,0,0,0,0,0,0,0,0,0,0,0,0,0,0,0,0,0,0,0,0,0,0,0,0,0,0,0,0,0,0,0,0,0,0,0,0,0,0,0,0,0,0,0,0,0,0,0,0,0,0,0,
0,0,0,0,0,0,0,0,0,0,0,0,0,0,0,0,0,0,0,0,0,0,0,0,0,0,0,0,0,0,0,0,0,0,0,0,0,0,0,0,0,0,0,0,0,0,0,0,0,0,0,0,0,0,0,0,0,0,0,0,0,0,0,0,0,0,0,0,0,0,0,0,0,0,0,0,0,0,0,0,0,0,0,0,0,0,0,0,0,0,0,0,0,0,0,0,0,0,0,0,0,
0,0,0,0,0,0,0,0,0,0,0,0,0,0,0,0,0,0,0,0,0,0,0,0,0,0,0,0,0,0,0,0,0,0,0,0,0,0,0,0,0,0,0,0,0,0,0,0,0,0,0,0,0,0,0,0,0,0,0,0,0,0,0,0,0,0,0,0,0,0,0,0,0,0,0,0,0,0,0,0,0,0,0,0,0,0,0,0,0,0,0,0,0,0,0,0,0,0,0,0,0,
0,0,0,0,0,0,0,0,0,0,0,0,0,0,0,0,0,0,0,0,0,0,0,0,0,0,0,0,0,0,0,0,0,0,0,0,0,0,0,0,0,0,0,0,0,0,0,0,0,0,0,0,0,0,0,0,0,0,0,0,0,0,0,0,0,0,0,0,0,0,0,0,0,0,0,0,0,0,0,0,0,0,0,0,0,0,0,0,0,0,0,0,0,0,0,0,0,0,0,0,0,
0,0,0,0,0,0,0,0,0,0,0,0,0,0,0,0,0,0,0,0,0,0,0,0,0,0,0,0,0,0,0,0,0,0,0,0,0,0,0,0,0,0,0,0,0,0,0,0,0,0,0,0,0,0,0,0,0,0,0,0,0,0,0,0,0,0,0,0,0,0,0,0,0,0,0,0,0,0,0,0,0,0,0,0,0,0,0,0,0,0,0,0,0,0,0,0,0,0,0,0,0,
0,0,0,0,0,0,0,0,0,0,0,0,0,0,0,0,0,0,0,0,0,0,0,0,0,0,0,0,0,0,0,0,0,0,0,0,0,0,0,0,0,0,0,0,0,0,0,0,0,0,0,0,0,0,0,0,0,0,0,0,0,0,0,0,0,0,0,0,0,0,0,0,0,0,0,0,0,0,0,0,0,0,0,0,0,0,0,0,0,0,0,0,0,0,0,0,0,0,0,0,0,
0,0,0,0,0,0,0,0,0,0,0,0,0,0,0,0,0,0,0,0,0,0,0,0,0,0,0,0,0,0,0,0,0,0,0,0,0,0,0,0,0,0,0,0,0,0,0,0,0,0,0,0,0,0,0,0,0,0,0,0,0,0,0,0,0,0,0,0,0,0,0,0,0,0,0,0,0,0,0,0,0,0,0,0,0,0,0,0,0,0,0,0,0,0,0,0,0,0,0,0,0,
0,0,0,0,0,0,0,0,0,0,0,0,0,0,0,0,0,0,0,0,0,0,0,0,0,0,0,0,0,0,0,0,0,0,0,0,0,0,0,0,0,0,0,0,0,0,0,0,0,0,0,0,0,0,0,0,0,0,0,0,0,0,0,0,0,0,0,0,0,0,0,0,0,0,0,0,0,0,0,0,0,0,0,0,0,0,0,0,0,0,0,0,0,0,0,0,0,0,0,0,0,
0,0,0,0,0,0,0,0,0,0,0,0,0,0,0,0,0,0,0,0,0,0,0,0,0,0,0,0,0,0,0,0,0,0,0,0,0,0,0,0,0,0,0,0,0,0,0,0,0,0,0,0,0,0,0,0,0,0,0,0,0,0,0,0,0,0,0,0,0,0,0,0,0,0,0,0,0,0,0,0,0,0,0,0,0,0,0,0,0,0,0,0,0,0,0,0,0,0,0,0,0,
0,0,0,0,0,0,0,0,0,0,0,0,0,0,0,0,0,0,0,0,0,0,0,0,0,0,0,0,0,0,0,0,0,0,0,0,0,0,0,0,0,0,0,0,0,0,0,0,0,0,0,0,0,0,0,0,0,0,0,0,0,0,0,0,0,0,0,0,0,0,0,0,0,0,0,0,0,0,0,0,0,0,0,0,0,0,0,0,0,0,0,0,0,0,0,0,0,0,0,0,0,
0,0,0,0,0,0,0,0,0,0,0,0,0,0,0,0,0,0,0,0,0,0,0,0,0,0,0,0,0,0,0,0,0,0,0,0,0,0,0,0,0,0,0,0,0,0,0,0,0,0,0,0,0,0,0,0,0,0,0,0,0,0,0,0,0,0,0,0,0,0,0,0,0,0,0,0,0,0,0,0,0,0,0,0,0,0,0,0,0,0,0,0,0,0,0,0,0,0,0,0,0,
0,0,0,0,0,0,0,0,0,0,0,0,0,0,0,0,0,0,0,0,0,0,0,0,0,0,0,0,0,0,0,0,0,0,0,0,0,0,0,0,0,0,0,0,0,0,0,0,0,0,0,0,0,0,0,0,0,0,0,0,0,0,0,0,0,0,0,0,0,0,0,0,0,0,0,0,0,0,0,0,0,0,0,0,0,0,0,0,0,0,0,0,0,0,0,0,0,0,0,0,0,
0,0,0,0,0,0,0,0,0,0,0,0,0,0,0,0,0,0,0,0,0,0,0,0,0,0,0,0,0,0,0,0,0,0,0,0,0,0,0,0,0,0,0,0,0,0,0,0,0,0,0,0,0,0,0,0,0,0,0,0,0,0,0,0,0,0,0,0,0,0,0,0,0,0,0,0,0,0,0,0,0,0,0,0,0,0,0,0,0,0,0,0,0,0,0,0,0,0,0,0,0,
0,0,0,0,0,0,0,0,0,0,0,0,0,0,0,0,0,0,0,0,0,0,0,0,0,0,0,0,0,0,0,0,0,0,0,0,0,0,0,0,0,0,0,0,0,0,0,0,0,0,0,0,0,0,0,0,0,0,0,0,0,0,0,0,0,0,0,0,0,0,0,0,0,0,0,0,0,0,0,0,0,0,0,0,0,0,0,0,0,0,0,0,0,0,0,0,0,0,0,0,0,
0,0,0,0,0,0,0,0,0,0,0,0,0,0,0,0,0,0,0,0,0,0,0,0,0,0,0,0,0,0,0,0,0,0,0,0,0,0,0,0,0,0,0,0,0,0,0,0,0,0,0,0,0,0,0,0,0,0,0,0,0,0,0,0,0,0,0,0,0,0,0,0,0,0,0,0,0,0,0,0,0,0,0,0,0,0,0,0,0,0,0,0,0,0,0,0,0,0,0,0,0,
0,0,0,0,0,0,0,0,0,0,0,0,0,0,0,0,0,0,0,0,0,0,0,0,0,0,0,0,0,0,0,0,0,0,0,0,0,0,0,0,0,0,0,0,0,0,0,0,0,0,0,0,0,0,0,0,0,0,0,0,0,0,0,0,0,0,0,0,0,0,0,0,0,0,0,0,0,0,0,0,0,0,0,0,0,0,0,0,0,0,0,0,0,0,0,0,0,0,0,0,0,
0,0,0,0,0,0,0,0,0,0,0,0,0,0,0,0,0,0,0,0,0,0,0,0,0,0,0,0,0,0,0,0,0,0,0,0,0,0,0,0,0,0,0,0,0,0,0,0,0,0,0,0,0,0,0,0,0,0,0,0,0,0,0,0,0,0,0,0,0,0,0,0,0,0,0,0,0,0,0,0,0,0,0,0,0,0,0,0,0,0,0,0,0,0,0,0,0,0,0,0,0
</data>
 </layer>
</map>
